; HEADER_BLOCK_START
; BambuStudio 01.09.05.51
; estimated printing time (normal mode) = 1m 45s
; total layer number: 5
; filament_density: 1.24
; filament_diameter: 1.75
; max_z_height: 1.00
; HEADER_BLOCK_END

; EXECUTABLE_BLOCK_START
EXCLUDE_OBJECT_DEFINE NAME=3dp-1_cm-2026-07-09_23-50-39.step_id_0_copy_0 CENTER=0,0 POLYGON=[[-5,-5],[5,-5],[5,5],[-5,5],[-5,-5]]
M73 P0 R1
M106 S0
M106 P2 S0
G90
G21
M83 ; use relative distances for extrusion
; filament start gcode
; CHANGE_LAYER
; Z_HEIGHT: 0.2
; LAYER_HEIGHT: 0.2
;BEFORE_LAYER_CHANGE
;0.2
G92 E0

G1 E-.8 F1800
;AFTER_LAYER_CHANGE
;0.2
M106 S0
M106 P2 S0
SET_VELOCITY_LIMIT ACCEL_TO_DECEL=250
M204 S500
SET_VELOCITY_LIMIT SQUARE_CORNER_VELOCITY=9
G1 Z.4 F21000
G1 X3.836 Y3.836
G1 Z.4
G1 Z.2
G1 E.8 F1800
; FEATURE: Inner wall
; LINE_WIDTH: 0.499999
G1 F1720
G1 X-3.836 Y3.836 E.28574
G1 X-3.836 Y-3.836 E.28574
M73 P1 R1
G1 X3.836 Y-3.836 E.28574
G1 X3.836 Y0 E.14287
G1 X3.836 Y3.776 E.14064
M73 P2 R1
G1 X4.293 Y4.293 F21000
G1 F1720
G1 X-4.293 Y4.293 E.31979
G1 X-4.293 Y-4.293 E.31979
M73 P3 R1
G1 X4.293 Y-4.293 E.31979
G1 X4.293 Y0 E.15989
G1 X4.293 Y4.233 E.15766
G1 X4.75 Y4.75 F21000
; FEATURE: Outer wall
G1 F1720
G1 X-4.75 Y4.75 E.35384
M73 P4 R1
G1 X-4.75 Y-4.75 E.35384
G1 X4.75 Y-4.75 E.35384
M73 P5 R1
G1 X4.75 Y0 E.17692
G1 X4.75 Y4.69 E.17468
G1 E-.56 F1800
; WIPE_START
G1 F16800
G1 X2.75 Y4.703 E-.228
; WIPE_END
G1 E-.012 F1800
G1 Z.6 F21000
M73 P6 R1
G1 X2.774 Y-3.699 Z.6
G1 Z.2
G1 E.8 F1800
; FEATURE: Bottom surface
; LINE_WIDTH: 0.500581
G1 F1720
G1 X3.493 Y-2.979 E.03795
G1 X3.493 Y-2.332 E.02414
G1 X2.332 Y-3.493 E.06124
G1 X1.685 Y-3.493 E.02414
G1 X3.493 Y-1.685 E.09537
M73 P7 R1
G1 X3.493 Y-1.038 E.02414
G1 X1.038 Y-3.493 E.12951
G1 X.39 Y-3.493 E.02414
G1 X3.493 Y-.39 E.16364
G1 X3.493 Y.257 E.02414
G1 X-.257 Y-3.493 E.19778
G1 X-.904 Y-3.493 E.02414
G1 X3.493 Y.904 E.23191
M73 P8 R1
G1 X3.493 Y1.551 E.02414
G1 X-1.551 Y-3.493 E.26605
G1 X-2.199 Y-3.493 E.02414
G1 X3.493 Y2.199 E.30019
M73 P9 R1
G1 X3.493 Y2.846 E.02414
G1 X-2.846 Y-3.493 E.33432
G1 X-3.493 Y-3.493 E.02413
G1 X3.493 Y3.493 E.36845
G1 X2.846 Y3.493 E.02414
G1 X-3.493 Y-2.846 E.33431
M73 P10 R1
G1 X-3.493 Y-2.199 E.02414
G1 X2.199 Y3.493 E.30018
G1 X1.551 Y3.493 E.02414
G1 X-3.493 Y-1.551 E.26604
M73 P11 R1
G1 X-3.493 Y-.904 E.02414
G1 X.904 Y3.493 E.23191
G1 X.257 Y3.493 E.02414
G1 X-3.493 Y-.257 E.19777
G1 X-3.493 Y.39 E.02414
G1 X-.39 Y3.493 E.16364
M73 P12 R1
G1 X-1.038 Y3.493 E.02414
G1 X-3.493 Y1.038 E.1295
G1 X-3.493 Y1.685 E.02414
G1 X-1.685 Y3.493 E.09536
G1 X-2.332 Y3.493 E.02414
G1 X-3.493 Y2.332 E.06123
G1 X-3.493 Y2.979 E.02414
G1 X-2.774 Y3.699 E.03794
EXCLUDE_OBJECT_END NAME=3dp-1_cm-2026-07-09_23-50-39.step_id_0_copy_0
; CHANGE_LAYER
; Z_HEIGHT: 0.4
; LAYER_HEIGHT: 0.2
;BEFORE_LAYER_CHANGE
;0.4
G92 E0

G1 E-.56 F1800
; WIPE_START
G1 F16800
G1 X-3.493 Y2.979 E-.11598
G1 X-3.493 Y2.332 E-.07378
G1 X-3.256 Y2.569 E-.03824
; WIPE_END
M73 P13 R1
G1 E-.012 F1800
;AFTER_LAYER_CHANGE
;0.4
M106 S255
M106 P2 S178
SET_VELOCITY_LIMIT ACCEL_TO_DECEL=2500
M204 S5000
M140 S60 ; set bed temperature
EXCLUDE_OBJECT_START NAME=3dp-1_cm-2026-07-09_23-50-39.step_id_0_copy_0
SET_VELOCITY_LIMIT SQUARE_CORNER_VELOCITY=12
G1 Z.6 F21000
G1 X4.086 Y4.086 Z.6
G1 Z.4
G1 E.8 F1800
SET_VELOCITY_LIMIT SQUARE_CORNER_VELOCITY=7
; FEATURE: Inner wall
; LINE_WIDTH: 0.399999
G1 F2160
G1 X-4.086 Y4.086 E.23778
M73 P14 R1
G1 X-4.086 Y-4.086 E.23778
G1 X4.086 Y-4.086 E.23778
G1 X4.086 Y0 E.11889
M73 P15 R1
G1 X4.086 Y4.026 E.11714
SET_VELOCITY_LIMIT SQUARE_CORNER_VELOCITY=9
SET_VELOCITY_LIMIT SQUARE_CORNER_VELOCITY=12
G1 X4.443 Y4.443 F21000
SET_VELOCITY_LIMIT SQUARE_CORNER_VELOCITY=7
G1 F2160
G1 X-4.443 Y4.443 E.25856
G1 X-4.443 Y-4.443 E.25856
M73 P16 R1
G1 X4.443 Y-4.443 E.25856
G1 X4.443 Y0 E.12928
G1 X4.443 Y4.383 E.12753
SET_VELOCITY_LIMIT SQUARE_CORNER_VELOCITY=9
SET_VELOCITY_LIMIT SQUARE_CORNER_VELOCITY=12
M73 P17 R1
G1 X4.8 Y4.8 F21000
SET_VELOCITY_LIMIT ACCEL_TO_DECEL=1500
M204 S3000
SET_VELOCITY_LIMIT SQUARE_CORNER_VELOCITY=7
; FEATURE: Outer wall
G1 F2160
G1 X-4.8 Y4.8 E.27934
G1 X-4.8 Y-4.8 E.27934
M73 P18 R1
G1 X4.8 Y-4.8 E.27934
G1 X4.8 Y0 E.13967
G1 X4.8 Y4.74 E.13792
SET_VELOCITY_LIMIT ACCEL_TO_DECEL=2500
M204 S5000
SET_VELOCITY_LIMIT SQUARE_CORNER_VELOCITY=9
M73 P19 R1
G1 E-.56 F1800
; WIPE_START
G1 F16800
G1 X2.8 Y4.752 E-.228
; WIPE_END
G1 E-.012 F1800
SET_VELOCITY_LIMIT SQUARE_CORNER_VELOCITY=12
G1 Z.8 F21000
G1 X3.241 Y3.979 Z.8
G1 Z.4
G1 E.8 F1800
; FEATURE: Internal solid infill
; LINE_WIDTH: 0.407565
G1 F2160
G1 X3.818 Y3.402 E.02426
G1 X3.818 Y2.886 E.01532
G1 X2.886 Y3.818 E.03917
G1 X2.37 Y3.818 E.01532
M73 P20 R1
G1 X3.818 Y2.37 E.06084
G1 X3.818 Y1.854 E.01532
G1 X1.854 Y3.818 E.08251
G1 X1.339 Y3.818 E.01532
G1 X3.818 Y1.339 E.10418
G1 X3.818 Y.823 E.01532
G1 X.823 Y3.818 E.12585
G1 X.307 Y3.818 E.01532
G1 X3.818 Y.307 E.14752
G1 X3.818 Y-.208 E.01532
M73 P21 R1
G1 X-.208 Y3.818 E.16919
G1 X-.724 Y3.818 E.01532
G1 X3.818 Y-.724 E.19086
G1 X3.818 Y-1.24 E.01532
G1 X-1.24 Y3.818 E.21253
G1 X-1.755 Y3.818 E.01532
G1 X3.818 Y-1.755 E.2342
M73 P22 R1
G1 X3.818 Y-2.271 E.01532
G1 X-2.271 Y3.818 E.25587
G1 X-2.787 Y3.818 E.01532
G1 X3.818 Y-2.787 E.27754
G1 X3.818 Y-3.302 E.01532
G1 X-3.302 Y3.818 E.29921
M73 P23 R1
G1 X-3.818 Y3.818 E.01532
G1 X3.818 Y-3.818 E.32088
G1 X3.302 Y-3.818 E.01532
G1 X-3.818 Y3.302 E.29921
M73 P24 R1
G1 X-3.818 Y2.787 E.01532
G1 X2.787 Y-3.818 E.27754
G1 X2.271 Y-3.818 E.01532
G1 X-3.818 Y2.271 E.25587
G1 X-3.818 Y1.755 E.01532
G1 X1.755 Y-3.818 E.2342
M73 P25 R1
G1 X1.24 Y-3.818 E.01532
G1 X-3.818 Y1.24 E.21253
G1 X-3.818 Y.724 E.01532
G1 X.724 Y-3.818 E.19086
G1 X.208 Y-3.818 E.01532
G1 X-3.818 Y.208 E.16919
M73 P26 R1
G1 X-3.818 Y-.308 E.01532
G1 X-.308 Y-3.818 E.14752
G1 X-.823 Y-3.818 E.01532
G1 X-3.818 Y-.823 E.12585
G1 X-3.818 Y-1.339 E.01532
G1 X-1.339 Y-3.818 E.10418
G1 X-1.855 Y-3.818 E.01532
G1 X-3.818 Y-1.855 E.08251
G1 X-3.818 Y-2.37 E.01532
G1 X-2.37 Y-3.818 E.06084
M73 P27 R1
G1 X-2.886 Y-3.818 E.01532
G1 X-3.818 Y-2.886 E.03917
G1 X-3.818 Y-3.402 E.01532
G1 X-3.241 Y-3.979 E.02425
SET_VELOCITY_LIMIT SQUARE_CORNER_VELOCITY=9
EXCLUDE_OBJECT_END NAME=3dp-1_cm-2026-07-09_23-50-39.step_id_0_copy_0
; CHANGE_LAYER
; Z_HEIGHT: 0.6
; LAYER_HEIGHT: 0.2
;BEFORE_LAYER_CHANGE
;0.6
G92 E0

G1 E-.56 F1800
; WIPE_START
G1 F16800
G1 X-3.818 Y-3.402 E-.09304
G1 X-3.818 Y-2.886 E-.05879
G1 X-3.346 Y-3.358 E-.07617
; WIPE_END
G1 E-.012 F1800
;AFTER_LAYER_CHANGE
;0.6
EXCLUDE_OBJECT_START NAME=3dp-1_cm-2026-07-09_23-50-39.step_id_0_copy_0
SET_VELOCITY_LIMIT SQUARE_CORNER_VELOCITY=12
G1 Z.8 F21000
G1 X-2.137 Y-.875 Z.8
G1 Z.6
M73 P28 R1
G1 E.8 F1800
SET_VELOCITY_LIMIT SQUARE_CORNER_VELOCITY=7
; FEATURE: Inner wall
; LINE_WIDTH: 0.553998
G1 F2417
G1 X-2.14 Y-.77 E.00438
; LINE_WIDTH: 0.548096
G1 X-2.14 Y.326 E.0451
; LINE_WIDTH: 0.551924
G1 X-2.138 Y.37 E.00183
SET_VELOCITY_LIMIT SQUARE_CORNER_VELOCITY=9
G1 E-.56 F1800
; WIPE_START
G1 F16800
G1 X-2.14 Y.326 E-.00806
G1 X-2.14 Y-.77 E-.20068
G1 X-2.137 Y-.875 E-.01926
; WIPE_END
G1 E-.012 F1800
SET_VELOCITY_LIMIT SQUARE_CORNER_VELOCITY=12
G1 Z1 F21000
G1 X-.569 Y-.222 Z1
G1 Z.6
G1 E.8 F1800
SET_VELOCITY_LIMIT SQUARE_CORNER_VELOCITY=7
; LINE_WIDTH: 0.560906
G1 F2417
G1 X.065 Y-.222 E.02677
SET_VELOCITY_LIMIT SQUARE_CORNER_VELOCITY=9
G1 E-.56 F1800
; WIPE_START
G1 F16800
G1 X-.569 Y-.222 E-.228
; WIPE_END
G1 E-.012 F1800
SET_VELOCITY_LIMIT SQUARE_CORNER_VELOCITY=12
G1 Z1 F21000
M73 P29 R1
G1 X1.494 Y-.07 Z1
G1 Z.6
G1 E.8 F1800
SET_VELOCITY_LIMIT SQUARE_CORNER_VELOCITY=7
; LINE_WIDTH: 0.38292
G1 F2417
G1 X1.494 Y-1.541 E.04075
SET_VELOCITY_LIMIT SQUARE_CORNER_VELOCITY=9
G1 E-.56 F1800
; WIPE_START
G1 F16800
G1 X1.494 Y-.07 E-.228
; WIPE_END
G1 E-.012 F1800
SET_VELOCITY_LIMIT SQUARE_CORNER_VELOCITY=12
G1 Z1 F21000
G1 X2.771 Y-.07 Z1
M73 P30 R1
G1 Z.6
G1 E.8 F1800
SET_VELOCITY_LIMIT SQUARE_CORNER_VELOCITY=7
G1 F2417
G1 X2.771 Y-1.541 E.04075
SET_VELOCITY_LIMIT SQUARE_CORNER_VELOCITY=9
G1 E-.56 F1800
; WIPE_START
G1 F16800
G1 X2.771 Y-.07 E-.228
; WIPE_END
G1 E-.012 F1800
SET_VELOCITY_LIMIT SQUARE_CORNER_VELOCITY=12
G1 Z1 F21000
G1 X4.086 Y-1.925 Z1
G1 Z.6
M73 P31 R1
G1 E.8 F1800
SET_VELOCITY_LIMIT SQUARE_CORNER_VELOCITY=7
; LINE_WIDTH: 0.399999
G1 F2417
G1 X3.935 Y-2.076 E.00622
G1 X-1.116 Y-2.076 E.14697
G1 X-1.542 Y-1.999 E.0126
G1 X-1.922 Y-1.785 E.01267
G1 X-1.938 Y-1.824 E.00122
G1 X-2.146 Y-2.016 E.00823
G1 X-2.393 Y-2.076 E.00741
G1 X-3.056 Y-2.076 E.01929
G1 X-3.456 Y-2.076 E.01164
; LINE_WIDTH: 0.447188
G1 X-3.747 Y-1.809 E.01304
; LINE_WIDTH: 0.494376
G1 X-4.039 Y-1.541 E.01456
G1 X-4.062 Y-2.124 E.02146
; LINE_WIDTH: 0.447188
G1 X-4.086 Y-2.706 E.01921
; LINE_WIDTH: 0.399999
G1 X-4.086 Y-3.106 E.01164
G1 X-4.086 Y-4.086 E.0285
G1 X4.086 Y-4.086 E.23778
M73 P32 R1
G1 X4.086 Y-3.081 E.02924
G1 X4.086 Y-1.985 E.03189
SET_VELOCITY_LIMIT SQUARE_CORNER_VELOCITY=9
G1 E-.56 F1800
; WIPE_START
G1 F16800
G1 X3.935 Y-2.076 E-.02013
G1 X2.111 Y-2.076 E-.20787
; WIPE_END
G1 E-.012 F1800
SET_VELOCITY_LIMIT SQUARE_CORNER_VELOCITY=12
G1 Z1 F21000
G1 X4.086 Y4.086 Z1
M73 P33 R1
G1 Z.6
G1 E.8 F1800
SET_VELOCITY_LIMIT SQUARE_CORNER_VELOCITY=7
G1 F2417
G1 X-4.086 Y4.086 E.23778
G1 X-4.086 Y3.106 E.0285
G1 X-4.086 Y2.706 E.01164
; LINE_WIDTH: 0.434402
G1 X-4.069 Y2.352 E.01133
; LINE_WIDTH: 0.468805
G1 X-4.051 Y1.997 E.01232
; LINE_WIDTH: 0.503208
M73 P34 R1
G1 X-4.034 Y1.642 E.01332
G1 X-3.841 Y1.787 E.00904
; LINE_WIDTH: 0.468805
G1 X-3.649 Y1.932 E.00837
; LINE_WIDTH: 0.434402
G1 X-3.456 Y2.076 E.00769
G1 E-.8 F1800
SET_VELOCITY_LIMIT SQUARE_CORNER_VELOCITY=12
G1 Z1 F21000
G1 X-1.957 Y2.076 Z1
G1 Z.6
G1 E.8 F1800
SET_VELOCITY_LIMIT SQUARE_CORNER_VELOCITY=7
; LINE_WIDTH: 0.399999
G1 F2417
G1 X-2.357 Y2.076 E.01164
G1 X-3.456 Y2.076 E.03198
G1 X-1.864 Y2.068 E.04631
G1 X-1.601 Y1.941 E.00849
G1 X-1.471 Y1.766 E.00638
G1 X-1.437 Y1.578 E.00553
G1 X-1.116 Y1.633 E.00948
G1 X3.252 Y1.628 E.1271
M73 P35 R1
G1 X3.729 Y1.495 E.01438
G1 X4.086 Y1.238 E.0128
G1 X4.086 Y4.026 E.08111
SET_VELOCITY_LIMIT SQUARE_CORNER_VELOCITY=9
SET_VELOCITY_LIMIT SQUARE_CORNER_VELOCITY=12
G1 X4.443 Y4.443 F21000
SET_VELOCITY_LIMIT SQUARE_CORNER_VELOCITY=7
G1 F2417
G1 X-4.443 Y4.443 E.25856
G1 X-4.443 Y.499 E.11476
M73 P36 R1
G1 X-3.634 Y1.461 E.03657
G1 X-3.634 Y1.541 E.00232
G1 X-3.456 Y1.719 E.00735
G1 X-1.957 Y1.719 E.04362
G1 X-1.838 Y1.674 E.00369
G1 X-1.78 Y1.569 E.0035
G1 X-1.821 Y1.427 E.00429
; LINE_WIDTH: 0.397204
G1 X-2.184 Y1.004 E.01609
; LINE_WIDTH: 0.38186
G1 X-2.223 Y.896 E.00319
; LINE_WIDTH: 0.423516
G1 X-2.202 Y.766 E.00407
; LINE_WIDTH: 0.465171
G1 X-2.181 Y.637 E.00451
; LINE_WIDTH: 0.506827
G1 X-2.159 Y.507 E.00496
; LINE_WIDTH: 0.548482
G1 X-2.138 Y.378 E.0054
G1 X-2.081 Y.485 E.005
; LINE_WIDTH: 0.506827
G1 X-2.024 Y.592 E.00459
; LINE_WIDTH: 0.465171
G1 X-1.967 Y.699 E.00417
; LINE_WIDTH: 0.423516
G1 X-1.91 Y.806 E.00376
; LINE_WIDTH: 0.396566
G1 X-1.618 Y1.123 E.01239
; LINE_WIDTH: 0.399999
G1 X-1.264 Y1.26 E.01105
G1 X-1.116 Y1.276 E.00434
G1 X3.252 Y1.271 E.1271
G1 X3.612 Y1.157 E.011
G1 X3.871 Y.952 E.0096
G1 X4.045 Y.67 E.00963
; LINE_WIDTH: 0.399703
G1 X4.106 Y.33 E.01005
; LINE_WIDTH: 0.38637
G1 X4.106 Y-1.541 E.05235
; LINE_WIDTH: 0.399999
G1 X3.935 Y-1.719 E.00721
G1 X2.878 Y-1.719 E.03074
G1 X2.771 Y-1.541 E.00606
M73 P37 R1
G1 X2.664 Y-1.719 E.00606
G1 X1.601 Y-1.719 E.03093
G1 X1.494 Y-1.541 E.00606
G1 X1.387 Y-1.719 E.00606
G1 X-1.116 Y-1.719 E.07284
G1 X-1.445 Y-1.655 E.00974
G1 X-1.703 Y-1.508 E.00864
SET_VELOCITY_LIMIT SQUARE_CORNER_VELOCITY=12
G1 X-1.703 Y-1.508 F21000
SET_VELOCITY_LIMIT SQUARE_CORNER_VELOCITY=7
G1 F2417
G1 X-1.914 Y-1.274 E.00918
; LINE_WIDTH: 0.438499
G1 X-1.97 Y-1.174 E.00369
; LINE_WIDTH: 0.476999
G1 X-2.026 Y-1.074 E.00404
; LINE_WIDTH: 0.515499
G1 X-2.081 Y-.974 E.0044
; LINE_WIDTH: 0.553998
G1 X-2.137 Y-.875 E.00476
G1 X-2.156 Y-.972 E.00411
; LINE_WIDTH: 0.516191
G1 X-2.175 Y-1.069 E.00381
; LINE_WIDTH: 0.478384
G1 X-2.194 Y-1.166 E.00351
; LINE_WIDTH: 0.440577
G1 X-2.213 Y-1.263 E.0032
; LINE_WIDTH: 0.402769
G1 X-2.214 Y-1.541 E.00815
; LINE_WIDTH: 0.399999
G1 X-2.281 Y-1.68 E.0045
G1 X-2.393 Y-1.719 E.00344
G1 X-3.456 Y-1.719 E.03093
G1 X-3.634 Y-1.541 E.00735
G1 X-3.634 Y-.151 E.04045
G1 X-4.443 Y-.151 E.02353
G1 X-4.443 Y-4.443 E.12489
M73 P38 R1
G1 X4.443 Y-4.443 E.25856
G1 X4.443 Y-3.081 E.03963
G1 X4.45 Y-1.541 E.04482
; LINE_WIDTH: 0.38637
G1 X4.45 Y.33 E.05235
; LINE_WIDTH: 0.389016
G1 X4.448 Y.39 E.0017
; LINE_WIDTH: 0.399999
G1 X4.443 Y4.383 E.11618
SET_VELOCITY_LIMIT SQUARE_CORNER_VELOCITY=9
SET_VELOCITY_LIMIT SQUARE_CORNER_VELOCITY=12
G1 X4.8 Y4.8 F21000
SET_VELOCITY_LIMIT ACCEL_TO_DECEL=1500
M204 S3000
SET_VELOCITY_LIMIT SQUARE_CORNER_VELOCITY=7
; FEATURE: Outer wall
G1 F2417
G1 X-4.8 Y4.8 E.27934
M73 P39 R1
G1 X-4.8 Y-4.8 E.27934
G1 X4.8 Y-4.8 E.27934
M73 P40 R1
G1 X4.8 Y0 E.13967
G1 X4.8 Y4.74 E.13792
SET_VELOCITY_LIMIT ACCEL_TO_DECEL=2500
M204 S5000
SET_VELOCITY_LIMIT SQUARE_CORNER_VELOCITY=9
G1 E-.56 F1800
; WIPE_START
G1 F16800
G1 X2.8 Y4.752 E-.228
; WIPE_END
M73 P41 R1
G1 E-.012 F1800
SET_VELOCITY_LIMIT SQUARE_CORNER_VELOCITY=12
G1 Z1 F21000
G1 X-4.039 Y-.555 Z1
G1 Z.6
G1 E.8 F1800
SET_VELOCITY_LIMIT SQUARE_CORNER_VELOCITY=7
; FEATURE: Inner wall
; LINE_WIDTH: 0.494376
G1 F2417
G1 X-4.039 Y-1.541 E.03626
SET_VELOCITY_LIMIT SQUARE_CORNER_VELOCITY=9
SET_VELOCITY_LIMIT SQUARE_CORNER_VELOCITY=12
G1 X-3.13 Y-1.612 F21000
SET_VELOCITY_LIMIT ACCEL_TO_DECEL=1500
M204 S3000
; FEATURE: Top surface
; LINE_WIDTH: 0.440801
G1 F2417
G1 X-2.482 Y-.964 E.0297
G1 X-2.482 Y-.402 E.01824
M73 P42 R1
G1 X-3.367 Y-1.286 E.04055
G1 X-3.367 Y-.723 E.01824
G1 X-2.482 Y.161 E.04055
G1 X-2.482 Y.724 E.01824
G1 X-3.367 Y-.161 E.04055
G1 X-3.367 Y.117 E.00901
G1 X-3.651 Y.117 E.00924
G1 X-2.317 Y1.451 E.06119
G1 X-2.88 Y1.451 E.01824
G1 X-4.375 Y-.044 E.06855
SET_VELOCITY_LIMIT ACCEL_TO_DECEL=2500
M204 S5000
SET_VELOCITY_LIMIT SQUARE_CORNER_VELOCITY=9
SET_VELOCITY_LIMIT SQUARE_CORNER_VELOCITY=12
G1 X-1.786 Y-3.062 F21000
; FEATURE: Internal solid infill
; LINE_WIDTH: 0.378296
G1 F2417
G1 X-1.849 Y-3.025 E.00198
G1 X-1.802 Y-2.998 E.00149
SET_VELOCITY_LIMIT SQUARE_CORNER_VELOCITY=9
SET_VELOCITY_LIMIT SQUARE_CORNER_VELOCITY=12
G1 X-1.116 Y-2.847 F21000
; LINE_WIDTH: 0.512058
G1 F2417
G1 X3.316 Y-2.847 E.16942
M73 P43 R1
G1 X3.316 Y-3.316 E.01793
G1 X-1.116 Y-3.316 E.16942
SET_VELOCITY_LIMIT SQUARE_CORNER_VELOCITY=9
SET_VELOCITY_LIMIT SQUARE_CORNER_VELOCITY=12
; LINE_WIDTH: 0.493393
G1 X-1.324 Y-3.334 E.00765
SET_VELOCITY_LIMIT SQUARE_CORNER_VELOCITY=9
SET_VELOCITY_LIMIT SQUARE_CORNER_VELOCITY=12
; LINE_WIDTH: 0.456035
G1 X-1.531 Y-3.353 E.00702
SET_VELOCITY_LIMIT SQUARE_CORNER_VELOCITY=9
SET_VELOCITY_LIMIT SQUARE_CORNER_VELOCITY=12
; LINE_WIDTH: 0.418678
G1 X-1.739 Y-3.372 E.00638
SET_VELOCITY_LIMIT SQUARE_CORNER_VELOCITY=9
SET_VELOCITY_LIMIT SQUARE_CORNER_VELOCITY=12
; LINE_WIDTH: 0.419895
G1 X-1.905 Y-3.352 E.00514
SET_VELOCITY_LIMIT SQUARE_CORNER_VELOCITY=9
SET_VELOCITY_LIMIT SQUARE_CORNER_VELOCITY=12
; LINE_WIDTH: 0.459686
G1 X-2.071 Y-3.332 E.00568
SET_VELOCITY_LIMIT SQUARE_CORNER_VELOCITY=9
SET_VELOCITY_LIMIT SQUARE_CORNER_VELOCITY=12
; LINE_WIDTH: 0.512418
G1 X-2.237 Y-3.312 E.0064
G1 X-3.316 Y-3.316 E.04126
G1 X-3.316 Y-2.847 E.01795
G1 X-2.393 Y-2.847 E.0353
SET_VELOCITY_LIMIT SQUARE_CORNER_VELOCITY=9
SET_VELOCITY_LIMIT SQUARE_CORNER_VELOCITY=12
; LINE_WIDTH: 0.493889
G1 X-2.21 Y-2.799 E.00695
SET_VELOCITY_LIMIT SQUARE_CORNER_VELOCITY=9
SET_VELOCITY_LIMIT SQUARE_CORNER_VELOCITY=12
; LINE_WIDTH: 0.457583
G1 X-2.027 Y-2.751 E.00639
SET_VELOCITY_LIMIT SQUARE_CORNER_VELOCITY=9
SET_VELOCITY_LIMIT SQUARE_CORNER_VELOCITY=12
; LINE_WIDTH: 0.419714
G1 X-1.823 Y-2.653 E.00697
SET_VELOCITY_LIMIT SQUARE_CORNER_VELOCITY=9
SET_VELOCITY_LIMIT SQUARE_CORNER_VELOCITY=12
; LINE_WIDTH: 0.419737
G1 X-1.622 Y-2.715 E.00646
SET_VELOCITY_LIMIT SQUARE_CORNER_VELOCITY=9
SET_VELOCITY_LIMIT SQUARE_CORNER_VELOCITY=12
; LINE_WIDTH: 0.459213
G1 X-1.421 Y-2.778 E.00714
SET_VELOCITY_LIMIT SQUARE_CORNER_VELOCITY=9
SET_VELOCITY_LIMIT SQUARE_CORNER_VELOCITY=12
; LINE_WIDTH: 0.501537
