; HEADER_BLOCK_START
; BambuStudio 01.09.05.51
; estimated printing time (normal mode) = 3m 53s
; total layer number: 5
; filament_density: 1.24
; filament_diameter: 1.75
; max_z_height: 1.00
; HEADER_BLOCK_END

; CONFIG_BLOCK_START
; accel_to_decel_enable = 1
; accel_to_decel_factor = 50%
; activate_air_filtration = 0
; additional_cooling_fan_speed = 70
; auxiliary_fan = 0
; bed_custom_model = 
; bed_custom_texture = 
; bed_exclude_area = 0x0
; before_layer_change_gcode = ;BEFORE_LAYER_CHANGE\n;[layer_z]\nG92 E0\n
; best_object_pos = 0.5,0.5
; bottom_shell_layers = 3
; bottom_shell_thickness = 0
; bottom_surface_pattern = monotonic
; bridge_angle = 0
; bridge_flow = 0.95
; bridge_no_support = 0
; bridge_speed = 25
; brim_object_gap = 0.1
; brim_type = auto_brim
; brim_width = 5
; chamber_temperatures = 0
; change_filament_gcode = 
; close_fan_the_first_x_layers = 1
; complete_print_exhaust_fan_speed = 80
; cool_plate_temp = 60
; cool_plate_temp_initial_layer = 60
; curr_bed_type = High Temp Plate
; default_acceleration = 3000
; default_filament_colour = ""
; default_filament_profile = "Voron Generic ABS"
; default_jerk = 9
; default_print_profile = 0.20mm Standard @Voron
; deretraction_speed = 6
; detect_narrow_internal_solid_infill = 1
; detect_overhang_wall = 1
; detect_thin_wall = 0
; different_settings_to_system = skirt_loops;;
; draft_shield = disabled
; during_print_exhaust_fan_speed = 60
; elefant_foot_compensation = 0
; enable_arc_fitting = 0
; enable_long_retraction_when_cut = 0
; enable_overhang_bridge_fan = 1
; enable_overhang_speed = 1
; enable_pressure_advance = 0
; enable_prime_tower = 0
; enable_support = 0
; enforce_support_layers = 0
; eng_plate_temp = 60
; eng_plate_temp_initial_layer = 60
; ensure_vertical_shell_thickness = 1
; exclude_object = 1
; extruder_clearance_height_to_lid = 140
; extruder_clearance_height_to_rod = 36
; extruder_clearance_max_radius = 68
; extruder_clearance_radius = 65
; extruder_colour = #FCE94F
; extruder_offset = 0x0
; extruder_type = DirectDrive
; fan_cooling_layer_time = 100
; fan_max_speed = 100
; fan_min_speed = 100
; filament_colour = #FF0000
; filament_cost = 20
; filament_density = 1.24
; filament_diameter = 1.75
; filament_end_gcode = "; filament end gcode \n"
; filament_flow_ratio = 1.21
; filament_ids = GFL99
; filament_is_support = 0
; filament_max_volumetric_speed = 5
; filament_minimal_purge_on_wipe_tower = 15
; filament_notes = 
; filament_settings_id = "Generic PLA @HenryLi-0 spark 0.4 nozzle"
; filament_soluble = 0
; filament_start_gcode = "; filament start gcode\n"
; filament_type = PLA
; filament_vendor = Generic
; filename_format = {input_filename_base}_{filament_type[0]}_{print_time}.gcode
; filter_out_gap_fill = 0
; first_layer_print_sequence = 0
; flush_into_infill = 0
; flush_into_objects = 0
; flush_into_support = 1
; flush_multiplier = 1
; flush_volumes_matrix = 0
; flush_volumes_vector = 140,140
; full_fan_speed_layer = 0
; fuzzy_skin = none
; fuzzy_skin_point_distance = 0.8
; fuzzy_skin_thickness = 0.3
; gap_infill_speed = 60
; gcode_add_line_number = 0
; gcode_flavor = klipper
; has_scarf_joint_seam = 0
; head_wrap_detect_zone = 
; host_type = octoprint
; hot_plate_temp = 60
; hot_plate_temp_initial_layer = 60
; independent_support_layer_height = 1
; infill_combination = 0
; infill_direction = 45
; infill_jerk = 12
; infill_wall_overlap = 25%
; initial_layer_acceleration = 350
; initial_layer_flow_ratio = 1
; initial_layer_infill_speed = 70
; initial_layer_jerk = 9
; initial_layer_line_width = 0.6
; initial_layer_print_height = 0.2
; initial_layer_speed = 70
; inner_wall_acceleration = 3000
; inner_wall_jerk = 7
; inner_wall_line_width = 0.6
; inner_wall_speed = 70
; interface_shells = 0
; internal_bridge_support_thickness = 0
; internal_solid_infill_line_width = 0.6
; internal_solid_infill_pattern = zig-zag
; internal_solid_infill_speed = 70
; ironing_direction = 45
; ironing_flow = 10%
; ironing_pattern = zig-zag
; ironing_spacing = 0.15
; ironing_speed = 30
; ironing_type = top
; is_infill_first = 0
; layer_change_gcode = ;AFTER_LAYER_CHANGE\n;[layer_z]
; layer_height = 0.2
; line_width = 0.6
; long_retractions_when_cut = 0
; machine_end_gcode = G0 X-45 Y-70 Z50\nPRINT_END
; machine_load_filament_time = 0
; machine_max_acceleration_e = 100,5000
; machine_max_acceleration_extruding = 100,20000
; machine_max_acceleration_retracting = 100,5000
; machine_max_acceleration_travel = 9000,9000
; machine_max_acceleration_x = 100,20000
; machine_max_acceleration_y = 100,20000
; machine_max_acceleration_z = 100,200
; machine_max_jerk_e = 0.3,2.5
; machine_max_jerk_x = 5,12
; machine_max_jerk_y = 5,12
; machine_max_jerk_z = 0.2,0.4
; machine_max_speed_e = 15,25
; machine_max_speed_x = 100,200
; machine_max_speed_y = 100,200
; machine_max_speed_z = 5,12
; machine_min_extruding_rate = 0,0
; machine_min_travel_rate = 0,0
; machine_pause_gcode = PAUSE
; machine_start_gcode = M190 S[bed_temperature_initial_layer_single]\nM109 S[nozzle_temperature_initial_layer]
; machine_unload_filament_time = 0
; max_bridge_length = 10
; max_layer_height = 0.32
; max_travel_detour_distance = 0
; min_bead_width = 85%
; min_feature_size = 25%
; min_layer_height = 0.08
; minimum_sparse_infill_area = 15
; mmu_segmented_region_interlocking_depth = 0
; mmu_segmented_region_max_width = 0
; nozzle_diameter = 0.4
; nozzle_height = 4
; nozzle_temperature = 230
; nozzle_temperature_initial_layer = 230
; nozzle_temperature_range_high = 240
; nozzle_temperature_range_low = 200
; nozzle_type = brass
; nozzle_volume = 0
; only_one_wall_first_layer = 0
; ooze_prevention = 0
; other_layers_print_sequence = 0
; other_layers_print_sequence_nums = 0
; outer_wall_acceleration = 1500
; outer_wall_jerk = 7
; outer_wall_line_width = 0.6
; outer_wall_speed = 70
; overhang_1_4_speed = 80
; overhang_2_4_speed = 50
; overhang_3_4_speed = 30
; overhang_4_4_speed = 10
; overhang_fan_speed = 100
; overhang_fan_threshold = 50%
; overhang_totally_speed = 24
; post_process = 
; precise_z_height = 0
; pressure_advance = 0.02
; prime_tower_brim_width = 3
; prime_tower_width = 35
; prime_volume = 45
; print_compatible_printers = "HenryLi-0 spark 0.4 nozzle"
; print_flow_ratio = 1
; print_sequence = by layer
; print_settings_id = 0.20mm Standard @HenryLi-0 spark 0.4 nozzle
; printable_area = -75x-75,75x-75,75x75,-75x75
; printable_height = 120
; printer_model = HenryLi-0 spark
; printer_notes = 
; printer_settings_id = HenryLi-0 spark 0.4 nozzle
; printer_structure = corexy
; printer_technology = FFF
; printer_variant = 0.4
; printhost_authorization_type = key
; printhost_ssl_ignore_revoke = 0
; printing_by_object_gcode = 
; process_notes = 
; raft_contact_distance = 0.1
; raft_expansion = 1.5
; raft_first_layer_density = 90%
; raft_first_layer_expansion = 2
; raft_layers = 0
; reduce_crossing_wall = 0
; reduce_fan_stop_start_freq = 1
; reduce_infill_retraction = 1
; required_nozzle_HRC = 3
; resolution = 0.012
; retract_before_wipe = 0%
; retract_length_toolchange = 2
; retract_lift_above = 0
; retract_lift_below = 274
; retract_restart_extra = 0
; retract_restart_extra_toolchange = 0
; retract_when_changing_layer = 1
; retraction_distances_when_cut = 18
; retraction_length = 0.8
; retraction_minimum_travel = 1
; retraction_speed = 2
; scan_first_layer = 0
; scarf_angle_threshold = 155
; seam_gap = 15%
; seam_position = aligned
; seam_slope_conditional = 1
; seam_slope_entire_loop = 0
; seam_slope_inner_walls = 1
; seam_slope_min_length = 10
; seam_slope_start_height = 50%
; seam_slope_steps = 10
; seam_slope_type = none
; silent_mode = 0
; single_extruder_multi_material = 1
; skirt_distance = 5
; skirt_height = 1
; skirt_loops = 5
; slice_closing_radius = 0.049
; slicing_mode = regular
; slow_down_for_layer_cooling = 1
; slow_down_layer_time = 8
; slow_down_min_speed = 10
; small_perimeter_speed = 50%
; small_perimeter_threshold = 0
; smooth_coefficient = 80
; smooth_speed_discontinuity_area = 1
; solid_infill_filament = 1
; sparse_infill_acceleration = 100%
; sparse_infill_anchor = 400%
; sparse_infill_anchor_max = 20
; sparse_infill_density = 15%
; sparse_infill_filament = 1
; sparse_infill_line_width = 0.6
; sparse_infill_pattern = grid
; sparse_infill_speed = 70
; spiral_mode = 0
; spiral_mode_max_xy_smoothing = 200%
; spiral_mode_smooth = 0
; standby_temperature_delta = -5
; start_end_points = 30x-3,54x245
; support_air_filtration = 0
; support_angle = 0
; support_base_pattern = default
; support_base_pattern_spacing = 2.5
; support_bottom_interface_spacing = 0.5
; support_bottom_z_distance = 0.2
; support_chamber_temp_control = 0
; support_critical_regions_only = 0
; support_expansion = 0
; support_filament = 0
; support_interface_bottom_layers = 0
; support_interface_filament = 0
; support_interface_loop_pattern = 0
; support_interface_not_for_body = 1
; support_interface_pattern = auto
; support_interface_spacing = 0.5
; support_interface_speed = 80
; support_interface_top_layers = 3
; support_line_width = 0.6
; support_object_first_layer_gap = 0.2
; support_object_xy_distance = 0.35
; support_on_build_plate_only = 0
; support_remove_small_overhang = 1
; support_speed = 150
; support_style = default
; support_threshold_angle = 30
; support_top_z_distance = 0.2
; support_type = normal(auto)
; temperature_vitrification = 60
; template_custom_gcode = 
; textured_plate_temp = 60
; textured_plate_temp_initial_layer = 60
; thick_bridges = 0
; thumbnail_size = 50x50
; time_lapse_gcode = 
; timelapse_type = 0
; top_area_threshold = 100%
; top_one_wall_type = all top
; top_shell_layers = 4
; top_shell_thickness = 0.8
; top_solid_infill_flow_ratio = 1
; top_surface_acceleration = 1500
; top_surface_jerk = 9
; top_surface_line_width = 0.6
; top_surface_pattern = monotonic
; top_surface_speed = 70
; travel_jerk = 12
; travel_speed = 350
; travel_speed_z = 0
; tree_support_branch_angle = 40
; tree_support_branch_diameter = 5
; tree_support_branch_distance = 5
; tree_support_wall_count = 0
; upward_compatible_machine = 
; use_firmware_retraction = 0
; use_relative_e_distances = 1
; wall_distribution_count = 1
; wall_filament = 1
; wall_generator = arachne
; wall_loops = 3
; wall_sequence = inner wall/outer wall
; wall_transition_angle = 10
; wall_transition_filter_deviation = 25%
; wall_transition_length = 100%
; wipe = 1
; wipe_distance = 2
; wipe_speed = 80%
; wipe_tower_no_sparse_layers = 0
; wipe_tower_rotation_angle = 0
; wipe_tower_x = 165
; wipe_tower_y = 250
; xy_contour_compensation = 0
; xy_hole_compensation = 0
; z_hop = 0.4
; z_hop_types = Normal Lift
; CONFIG_BLOCK_END

; THUMBNAIL_BLOCK_START
; THUMBNAIL_BLOCK_END

; EXECUTABLE_BLOCK_START
EXCLUDE_OBJECT_DEFINE NAME=3dp-1_cm-2026-07-09_23-50-39.step_id_0_copy_0 CENTER=0,0 POLYGON=[[-5,-5],[5,-5],[5,5],[-5,5],[-5,-5]]
M73 P0 R3
M106 S0
M106 P2 S0
; FEATURE: Custom
M190 S60
M109 S230
G90
G21
M83 ; use relative distances for extrusion
; filament start gcode
; CHANGE_LAYER
; Z_HEIGHT: 0.2
; LAYER_HEIGHT: 0.2
;BEFORE_LAYER_CHANGE
;0.2
G92 E0

G1 E-.8 F120
;AFTER_LAYER_CHANGE
;0.2
M106 S0
M106 P2 S0
SET_VELOCITY_LIMIT ACCEL_TO_DECEL=50
M204 S100
SET_VELOCITY_LIMIT SQUARE_CORNER_VELOCITY=5
G1 Z.4 F21000
G1 X12.785 Y0
G1 Z.4
G1 Z.2
G1 E.8 F360
; FEATURE: Skirt
; LINE_WIDTH: 0.6
G1 F2692.613
G1 X12.785 Y5 E.28024
G1 X12.388 Y7.456 E.13943
G1 X11.236 Y9.661 E.13943
G1 X9.448 Y11.39 E.13943
G1 X7.205 Y12.467 E.13943
G1 X5 Y12.785 E.12489
M73 P1 R3
G1 X-5 Y12.785 E.56049
G1 X-7.456 Y12.388 E.13943
G1 X-9.661 Y11.236 E.13943
G1 X-11.39 Y9.448 E.13943
G1 X-12.467 Y7.205 E.13943
G1 X-12.785 Y5 E.12489
G1 X-12.785 Y-5 E.56049
G1 X-12.388 Y-7.456 E.13943
G1 X-11.236 Y-9.661 E.13943
G1 X-9.448 Y-11.39 E.13943
G1 X-7.205 Y-12.467 E.13943
G1 X-5 Y-12.785 E.12489
G1 X5 Y-12.785 E.56049
M73 P2 R3
G1 X7.456 Y-12.388 E.13943
G1 X9.661 Y-11.236 E.13943
G1 X11.39 Y-9.448 E.13943
G1 X12.467 Y-7.205 E.13943
G1 X12.785 Y-5 E.12489
G1 X12.785 Y-.06 E.27688
G1 X12.228 Y-.06 F21000
G1 F2692.613
G1 X12.228 Y5 E.28361
G1 X11.831 Y7.363 E.13431
G1 X10.683 Y9.467 E.13431
G1 X8.91 Y11.079 E.13431
G1 X6.708 Y12.024 E.13431
G1 X5 Y12.228 E.09641
G1 X-5 Y12.228 E.56049
M73 P3 R3
G1 X-7.363 Y11.831 E.13431
G1 X-9.467 Y10.683 E.13431
G1 X-11.079 Y8.91 E.13431
G1 X-12.024 Y6.708 E.13431
G1 X-12.228 Y5 E.09641
G1 X-12.228 Y-5 E.56049
G1 X-11.831 Y-7.363 E.13431
G1 X-10.683 Y-9.467 E.13431
G1 X-8.91 Y-11.079 E.13431
G1 X-6.708 Y-12.024 E.13431
G1 X-5 Y-12.228 E.09641
G1 X5 Y-12.228 E.56049
G1 X7.363 Y-11.831 E.13431
G1 X9.467 Y-10.683 E.13431
M73 P4 R3
G1 X11.079 Y-8.91 E.13431
G1 X12.024 Y-6.708 E.13431
G1 X12.228 Y-5 E.09641
G1 X12.228 Y-.12 E.27352
G1 X11.671 Y-.12 F21000
G1 F2692.613
G1 X11.671 Y5 E.28697
G1 X11.274 Y7.267 E.129
G1 X10.13 Y9.264 E.129
G1 X8.376 Y10.754 E.129
G1 X6.22 Y11.559 E.129
G1 X5 Y11.671 E.06866
G1 X-5 Y11.671 E.56049
G1 X-7.267 Y11.274 E.129
G1 X-9.264 Y10.13 E.129
M73 P5 R3
G1 X-10.754 Y8.376 E.129
G1 X-11.559 Y6.22 E.129
G1 X-11.671 Y5 E.06866
G1 X-11.671 Y-5 E.56049
G1 X-11.274 Y-7.267 E.129
G1 X-10.13 Y-9.264 E.129
G1 X-8.376 Y-10.754 E.129
G1 X-6.22 Y-11.559 E.129
G1 X-5 Y-11.671 E.06866
G1 X5 Y-11.671 E.56049
G1 X7.267 Y-11.274 E.129
G1 X9.264 Y-10.13 E.129
G1 X10.754 Y-8.376 E.129
G1 X11.559 Y-6.22 E.129
G1 X11.671 Y-5 E.06866
M73 P6 R3
G1 X11.671 Y-.18 E.27016
G1 X11.114 Y-.18 F21000
G1 F2692.613
G1 X11.114 Y5 E.29033
G1 X10.717 Y7.167 E.12345
G1 X9.579 Y9.052 E.12345
G1 X7.846 Y10.411 E.12345
G1 X5 Y11.114 E.1643
G1 X-5 Y11.114 E.56049
G1 X-7.167 Y10.717 E.12345
G1 X-9.052 Y9.579 E.12345
G1 X-10.411 Y7.846 E.12345
G1 X-11.114 Y5 E.1643
G1 X-11.114 Y-5 E.56049
M73 P7 R3
G1 X-10.717 Y-7.167 E.12345
G1 X-9.579 Y-9.052 E.12345
G1 X-7.846 Y-10.411 E.12345
G1 X-5 Y-11.114 E.1643
G1 X5 Y-11.114 E.56049
G1 X7.167 Y-10.717 E.12345
G1 X9.052 Y-9.579 E.12345
G1 X10.411 Y-7.846 E.12345
G1 X11.114 Y-5 E.1643
G1 X11.114 Y-.24 E.26679
G1 X10.557 Y-.24 F21000
M73 P8 R3
G1 F2692.613
G1 X10.557 Y5 E.2937
G1 X10.161 Y7.061 E.11764
G1 X9.028 Y8.828 E.11764
G1 X7.321 Y10.049 E.11764
G1 X5 Y10.557 E.13315
G1 X-5 Y10.557 E.56049
G1 X-7.061 Y10.161 E.11764
G1 X-8.828 Y9.028 E.11764
G1 X-10.049 Y7.321 E.11764
G1 X-10.557 Y5 E.13315
G1 X-10.557 Y-5 E.56049
G1 X-10.161 Y-7.061 E.11764
G1 X-9.028 Y-8.828 E.11764
M73 P9 R3
G1 X-7.321 Y-10.049 E.11764
G1 X-5 Y-10.557 E.13315
G1 X5 Y-10.557 E.56049
G1 X7.061 Y-10.161 E.11764
G1 X8.828 Y-9.028 E.11764
G1 X10.049 Y-7.321 E.11764
G1 X10.557 Y-5 E.13315
G1 X10.557 Y-.3 E.26343
EXCLUDE_OBJECT_START NAME=3dp-1_cm-2026-07-09_23-50-39.step_id_0_copy_0
; WIPE_START
G1 F16800
G1 X10.557 Y1.7 E-.76
; WIPE_END
G1 E-.04 F120
G1 Z.6 F21000
G1 X3.586 Y3.586 Z.6
M73 P10 R3
G1 Z.2
G1 E.8 F360
; FEATURE: Inner wall
; LINE_WIDTH: 0.599999
G1 F2692.616
G1 X-3.586 Y3.586 E.40196
G1 X-3.586 Y-3.586 E.40196
G1 X3.586 Y-3.586 E.40196
G1 X3.586 Y0 E.20098
G1 X3.586 Y3.526 E.19762
M73 P11 R3
G1 X4.143 Y4.143 F21000
G1 F2692.616
G1 X-4.143 Y4.143 E.46441
G1 X-4.143 Y-4.143 E.46441
G1 X4.143 Y-4.143 E.46441
G1 X4.143 Y0 E.23221
G1 X4.143 Y4.083 E.22884
G1 X4.7 Y4.7 F21000
; FEATURE: Outer wall
G1 F2692.616
G1 X-4.7 Y4.7 E.52686
M73 P12 R3
G1 X-4.7 Y-4.7 E.52686
G1 X4.7 Y-4.7 E.52686
G1 X4.7 Y0 E.26343
G1 X4.7 Y4.64 E.26007
; WIPE_START
G1 F16800
G1 X2.7 Y4.653 E-.76
; WIPE_END
M73 P13 R3
G1 E-.04 F120
G1 Z.6 F21000
G1 X2.258 Y-3.419 Z.6
G1 Z.2
G1 E.8 F360
; FEATURE: Bottom surface
; LINE_WIDTH: 0.616354
G1 F2615.82
G1 X3.168 Y-2.509 E.07426
G1 X3.168 Y-1.698 E.04679
G1 X1.698 Y-3.168 E.11997
G1 X.887 Y-3.168 E.04679
G1 X3.168 Y-.887 E.18614
G1 X3.168 Y-.076 E.04679
G1 X.076 Y-3.168 E.25231
M73 P14 R3
G1 X-.735 Y-3.168 E.04679
G1 X3.168 Y.735 E.31848
G1 X3.168 Y1.546 E.04679
G1 X-1.546 Y-3.168 E.38464
G1 X-2.357 Y-3.168 E.04679
G1 X3.168 Y2.357 E.45081
G1 X3.168 Y3.168 E.04678
G1 X-3.168 Y-3.168 E.51697
G1 X-3.168 Y-2.357 E.04679
M73 P15 R3
G1 X2.357 Y3.168 E.4508
G1 X1.546 Y3.168 E.04679
G1 X-3.168 Y-1.546 E.38463
G1 X-3.168 Y-.735 E.04679
G1 X.735 Y3.168 E.31846
G1 X-.076 Y3.168 E.04679
G1 X-3.168 Y.076 E.2523
G1 X-3.168 Y.887 E.04679
