; HEADER_BLOCK_START
; BambuStudio 01.09.05.51
; estimated printing time (normal mode) = 2m 21s
; total layer number: 5
; filament_density: 1.24
; filament_diameter: 1.75
; max_z_height: 1.00
; HEADER_BLOCK_END

; CONFIG_BLOCK_START
; accel_to_decel_enable = 1
; accel_to_decel_factor = 50%
; activate_air_filtration = 0
; additional_cooling_fan_speed = 70
; auxiliary_fan = 0
; bed_custom_model = 
; bed_custom_texture = 
; bed_exclude_area = 0x0
; before_layer_change_gcode = ;BEFORE_LAYER_CHANGE\n;[layer_z]\nG92 E0\n
; best_object_pos = 0.5,0.5
; bottom_shell_layers = 3
; bottom_shell_thickness = 0
; bottom_surface_pattern = monotonic
; bridge_angle = 0
; bridge_flow = 0.95
; bridge_no_support = 0
; bridge_speed = 25
; brim_object_gap = 0.1
; brim_type = auto_brim
; brim_width = 5
; chamber_temperatures = 0
; change_filament_gcode = 
; close_fan_the_first_x_layers = 1
; complete_print_exhaust_fan_speed = 80
; cool_plate_temp = 60
; cool_plate_temp_initial_layer = 60
; curr_bed_type = High Temp Plate
; default_acceleration = 5000
; default_filament_colour = ""
; default_filament_profile = "Voron Generic ABS"
; default_jerk = 9
; default_print_profile = 0.20mm Standard @Voron
; deretraction_speed = 5
; detect_narrow_internal_solid_infill = 1
; detect_overhang_wall = 1
; detect_thin_wall = 0
; different_settings_to_system = ;;gcode_flavor;printer_structure
; draft_shield = disabled
; during_print_exhaust_fan_speed = 60
; elefant_foot_compensation = 0
; enable_arc_fitting = 0
; enable_long_retraction_when_cut = 0
; enable_overhang_bridge_fan = 1
; enable_overhang_speed = 1
; enable_pressure_advance = 0
; enable_prime_tower = 0
; enable_support = 0
; enforce_support_layers = 0
; eng_plate_temp = 60
; eng_plate_temp_initial_layer = 60
; ensure_vertical_shell_thickness = 1
; exclude_object = 1
; extruder_clearance_height_to_lid = 140
; extruder_clearance_height_to_rod = 36
; extruder_clearance_max_radius = 68
; extruder_clearance_radius = 65
; extruder_colour = #FCE94F
; extruder_offset = 0x0
; extruder_type = DirectDrive
; fan_cooling_layer_time = 100
; fan_max_speed = 100
; fan_min_speed = 100
; filament_colour = #FF0000
; filament_cost = 20
; filament_density = 1.24
; filament_diameter = 1.75
; filament_end_gcode = "; filament end gcode \n"
; filament_flow_ratio = 0.98
; filament_ids = GFL99
; filament_is_support = 0
; filament_max_volumetric_speed = 12
; filament_minimal_purge_on_wipe_tower = 15
; filament_notes = 
; filament_settings_id = "Generic PLA @HenryLi-0 spark 0.4 nozzle"
; filament_soluble = 0
; filament_start_gcode = "; filament start gcode\n"
; filament_type = PLA
; filament_vendor = Generic
; filename_format = {input_filename_base}_{filament_type[0]}_{print_time}.gcode
; filter_out_gap_fill = 0
; first_layer_print_sequence = 0
; flush_into_infill = 0
; flush_into_objects = 0
; flush_into_support = 1
; flush_multiplier = 1
; flush_volumes_matrix = 0
; flush_volumes_vector = 140,140
; full_fan_speed_layer = 0
; fuzzy_skin = none
; fuzzy_skin_point_distance = 0.8
; fuzzy_skin_thickness = 0.3
; gap_infill_speed = 100
; gcode_add_line_number = 0
; gcode_flavor = klipper
; has_scarf_joint_seam = 0
; head_wrap_detect_zone = 
; host_type = octoprint
; hot_plate_temp = 60
; hot_plate_temp_initial_layer = 60
; independent_support_layer_height = 1
; infill_combination = 0
; infill_direction = 45
; infill_jerk = 12
; infill_wall_overlap = 25%
; initial_layer_acceleration = 500
; initial_layer_flow_ratio = 1
; initial_layer_infill_speed = 105
; initial_layer_jerk = 9
; initial_layer_line_width = 0.5
; initial_layer_print_height = 0.2
; initial_layer_speed = 50
; inner_wall_acceleration = 5000
; inner_wall_jerk = 7
; inner_wall_line_width = 0.4
; inner_wall_speed = 200
; interface_shells = 0
; internal_bridge_support_thickness = 0
; internal_solid_infill_line_width = 0.4
; internal_solid_infill_pattern = zig-zag
; internal_solid_infill_speed = 200
; ironing_direction = 45
; ironing_flow = 10%
; ironing_pattern = zig-zag
; ironing_spacing = 0.15
; ironing_speed = 30
; ironing_type = no ironing
; is_infill_first = 0
; layer_change_gcode = ;AFTER_LAYER_CHANGE\n;[layer_z]
; layer_height = 0.2
; line_width = 0.4
; long_retractions_when_cut = 0
; machine_end_gcode = PRINT_END
; machine_load_filament_time = 0
; machine_max_acceleration_e = 5000,5000
; machine_max_acceleration_extruding = 100,20000
; machine_max_acceleration_retracting = 100,5000
; machine_max_acceleration_travel = 9000,9000
; machine_max_acceleration_x = 100,20000
; machine_max_acceleration_y = 100,20000
; machine_max_acceleration_z = 100,200
; machine_max_jerk_e = 0.5,2.5
; machine_max_jerk_x = 12,12
; machine_max_jerk_y = 12,12
; machine_max_jerk_z = 0.2,0.4
; machine_max_speed_e = 10,25
; machine_max_speed_x = 100,200
; machine_max_speed_y = 100,200
; machine_max_speed_z = 5,12
; machine_min_extruding_rate = 0,0
; machine_min_travel_rate = 0,0
; machine_pause_gcode = PAUSE
; machine_start_gcode = M190 S[bed_temperature_initial_layer_single]\nM109 S[nozzle_temperature_initial_layer]
; machine_unload_filament_time = 0
; max_bridge_length = 10
; max_layer_height = 0.32
; max_travel_detour_distance = 0
; min_bead_width = 85%
; min_feature_size = 25%
; min_layer_height = 0.08
; minimum_sparse_infill_area = 15
; mmu_segmented_region_interlocking_depth = 0
; mmu_segmented_region_max_width = 0
; nozzle_diameter = 0.4
; nozzle_height = 4
; nozzle_temperature = 220
; nozzle_temperature_initial_layer = 220
; nozzle_temperature_range_high = 230
; nozzle_temperature_range_low = 190
; nozzle_type = brass
; nozzle_volume = 0
; only_one_wall_first_layer = 0
; ooze_prevention = 0
; other_layers_print_sequence = 0
; other_layers_print_sequence_nums = 0
; outer_wall_acceleration = 3000
; outer_wall_jerk = 7
; outer_wall_line_width = 0.4
; outer_wall_speed = 120
; overhang_1_4_speed = 80
; overhang_2_4_speed = 50
; overhang_3_4_speed = 30
; overhang_4_4_speed = 10
; overhang_fan_speed = 100
; overhang_fan_threshold = 50%
; overhang_totally_speed = 24
; post_process = 
; precise_z_height = 0
; pressure_advance = 0.02
; prime_tower_brim_width = 3
; prime_tower_width = 35
; prime_volume = 45
; print_compatible_printers = "HenryLi-0 spark 0.4 nozzle"
; print_flow_ratio = 1
; print_sequence = by layer
; print_settings_id = 0.20mm Standard @HenryLi-0 spark 0.4 nozzle
; printable_area = -75x-75,75x-75,75x75,-75x75
; printable_height = 120
; printer_model = HenryLi-0 spark
; printer_notes = 
; printer_settings_id = HenryLi-0 spark 0.4 nozzle
; printer_structure = corexy
; printer_technology = FFF
; printer_variant = 0.4
; printhost_authorization_type = key
; printhost_ssl_ignore_revoke = 0
; printing_by_object_gcode = 
; process_notes = 
; raft_contact_distance = 0.1
; raft_expansion = 1.5
; raft_first_layer_density = 90%
; raft_first_layer_expansion = 2
; raft_layers = 0
; reduce_crossing_wall = 0
; reduce_fan_stop_start_freq = 1
; reduce_infill_retraction = 1
; required_nozzle_HRC = 3
; resolution = 0.012
; retract_before_wipe = 70%
; retract_length_toolchange = 2
; retract_lift_above = 0
; retract_lift_below = 274
; retract_restart_extra = 0
; retract_restart_extra_toolchange = 0
; retract_when_changing_layer = 1
; retraction_distances_when_cut = 18
; retraction_length = 0.8
; retraction_minimum_travel = 1
; retraction_speed = 5
; scan_first_layer = 0
; scarf_angle_threshold = 155
; seam_gap = 15%
; seam_position = aligned
; seam_slope_conditional = 1
; seam_slope_entire_loop = 0
; seam_slope_inner_walls = 1
; seam_slope_min_length = 10
; seam_slope_start_height = 50%
; seam_slope_steps = 10
; seam_slope_type = none
; silent_mode = 0
; single_extruder_multi_material = 1
; skirt_distance = 2
; skirt_height = 1
; skirt_loops = 0
; slice_closing_radius = 0.049
; slicing_mode = regular
; slow_down_for_layer_cooling = 1
; slow_down_layer_time = 8
; slow_down_min_speed = 10
; small_perimeter_speed = 50%
; small_perimeter_threshold = 0
; smooth_coefficient = 80
; smooth_speed_discontinuity_area = 1
; solid_infill_filament = 1
; sparse_infill_acceleration = 100%
; sparse_infill_anchor = 400%
; sparse_infill_anchor_max = 20
; sparse_infill_density = 15%
; sparse_infill_filament = 1
; sparse_infill_line_width = 0.45
; sparse_infill_pattern = grid
; sparse_infill_speed = 200
; spiral_mode = 0
; spiral_mode_max_xy_smoothing = 200%
; spiral_mode_smooth = 0
; standby_temperature_delta = -5
; start_end_points = 30x-3,54x245
; support_air_filtration = 0
; support_angle = 0
; support_base_pattern = default
; support_base_pattern_spacing = 2.5
; support_bottom_interface_spacing = 0.5
; support_bottom_z_distance = 0.2
; support_chamber_temp_control = 0
; support_critical_regions_only = 0
; support_expansion = 0
; support_filament = 0
; support_interface_bottom_layers = 0
; support_interface_filament = 0
; support_interface_loop_pattern = 0
; support_interface_not_for_body = 1
; support_interface_pattern = auto
; support_interface_spacing = 0.5
; support_interface_speed = 80
; support_interface_top_layers = 3
; support_line_width = 0.4
; support_object_first_layer_gap = 0.2
; support_object_xy_distance = 0.35
; support_on_build_plate_only = 0
; support_remove_small_overhang = 1
; support_speed = 150
; support_style = default
; support_threshold_angle = 30
; support_top_z_distance = 0.2
; support_type = normal(auto)
; temperature_vitrification = 60
; template_custom_gcode = 
; textured_plate_temp = 60
; textured_plate_temp_initial_layer = 60
; thick_bridges = 0
; thumbnail_size = 50x50
; time_lapse_gcode = 
; timelapse_type = 0
; top_area_threshold = 100%
; top_one_wall_type = all top
; top_shell_layers = 4
; top_shell_thickness = 0.8
; top_solid_infill_flow_ratio = 1
; top_surface_acceleration = 3000
; top_surface_jerk = 9
; top_surface_line_width = 0.4
; top_surface_pattern = monotonic
; top_surface_speed = 100
; travel_jerk = 12
; travel_speed = 350
; travel_speed_z = 0
; tree_support_branch_angle = 40
; tree_support_branch_diameter = 5
; tree_support_branch_distance = 5
; tree_support_wall_count = 0
; upward_compatible_machine = 
; use_firmware_retraction = 0
; use_relative_e_distances = 1
; wall_distribution_count = 1
; wall_filament = 1
; wall_generator = arachne
; wall_loops = 3
; wall_sequence = inner wall/outer wall
; wall_transition_angle = 10
; wall_transition_filter_deviation = 25%
; wall_transition_length = 100%
; wipe = 1
; wipe_distance = 2
; wipe_speed = 80%
; wipe_tower_no_sparse_layers = 0
; wipe_tower_rotation_angle = 0
; wipe_tower_x = 165
; wipe_tower_y = 250
; xy_contour_compensation = 0
; xy_hole_compensation = 0
; z_hop = 0.4
; z_hop_types = Normal Lift
; CONFIG_BLOCK_END

; THUMBNAIL_BLOCK_START
; THUMBNAIL_BLOCK_END

; EXECUTABLE_BLOCK_START
EXCLUDE_OBJECT_DEFINE NAME=3dp-1_cm-2026-07-09_23-50-39.step_id_0_copy_0 CENTER=0,0 POLYGON=[[-5,-5],[5,-5],[5,5],[-5,5],[-5,-5]]
M73 P0 R2
M106 S0
M106 P2 S0
; FEATURE: Custom
M190 S60
M109 S220
G90
G21
M83 ; use relative distances for extrusion
; filament start gcode
; CHANGE_LAYER
; Z_HEIGHT: 0.2
; LAYER_HEIGHT: 0.2
;BEFORE_LAYER_CHANGE
;0.2
G92 E0

G1 E-.8 F300
;AFTER_LAYER_CHANGE
;0.2
M106 S0
M106 P2 S0
SET_VELOCITY_LIMIT ACCEL_TO_DECEL=50
M204 S100
SET_VELOCITY_LIMIT SQUARE_CORNER_VELOCITY=9
EXCLUDE_OBJECT_START NAME=3dp-1_cm-2026-07-09_23-50-39.step_id_0_copy_0
G1 Z.4 F21000
G1 X3.836 Y3.836
G1 Z.4
G1 Z.2
G1 E.8 F300
; FEATURE: Inner wall
; LINE_WIDTH: 0.499999
G1 F1836
G1 X-3.836 Y3.836 E.28574
M73 P1 R2
G1 X-3.836 Y-3.836 E.28574
G1 X3.836 Y-3.836 E.28574
G1 X3.836 Y0 E.14287
G1 X3.836 Y3.776 E.14064
G1 X4.293 Y4.293 F21000
G1 F1836
G1 X-4.293 Y4.293 E.31979
M73 P2 R2
G1 X-4.293 Y-4.293 E.31979
G1 X4.293 Y-4.293 E.31979
G1 X4.293 Y0 E.15989
M73 P3 R2
G1 X4.293 Y4.233 E.15766
G1 X4.75 Y4.75 F21000
; FEATURE: Outer wall
G1 F1836
G1 X-4.75 Y4.75 E.35384
G1 X-4.75 Y-4.75 E.35384
M73 P4 R2
G1 X4.75 Y-4.75 E.35384
G1 X4.75 Y0 E.17692
G1 X4.75 Y4.69 E.17468
G1 E-.56 F300
; WIPE_START
G1 F16800
G1 X2.75 Y4.703 E-.228
; WIPE_END
M73 P5 R2
G1 E-.012 F300
G1 Z.6 F21000
G1 X2.774 Y-3.699 Z.6
G1 Z.2
G1 E.8 F300
; FEATURE: Bottom surface
; LINE_WIDTH: 0.500581
G1 F1836
G1 X3.493 Y-2.979 E.03795
G1 X3.493 Y-2.332 E.02414
G1 X2.332 Y-3.493 E.06124
G1 X1.685 Y-3.493 E.02414
G1 X3.493 Y-1.685 E.09537
M73 P6 R2
G1 X3.493 Y-1.038 E.02414
G1 X1.038 Y-3.493 E.12951
G1 X.39 Y-3.493 E.02414
G1 X3.493 Y-.39 E.16364
G1 X3.493 Y.257 E.02414
G1 X-.257 Y-3.493 E.19778
G1 X-.904 Y-3.493 E.02414
G1 X3.493 Y.904 E.23191
M73 P7 R2
G1 X3.493 Y1.551 E.02414
G1 X-1.551 Y-3.493 E.26605
G1 X-2.199 Y-3.493 E.02414
G1 X3.493 Y2.199 E.30019
G1 X3.493 Y2.846 E.02414
G1 X-2.846 Y-3.493 E.33432
M73 P8 R2
G1 X-3.493 Y-3.493 E.02413
G1 X3.493 Y3.493 E.36845
G1 X2.846 Y3.493 E.02414
G1 X-3.493 Y-2.846 E.33431
M73 P9 R2
G1 X-3.493 Y-2.199 E.02414
G1 X2.199 Y3.493 E.30018
G1 X1.551 Y3.493 E.02414
G1 X-3.493 Y-1.551 E.26604
G1 X-3.493 Y-.904 E.02414
G1 X.904 Y3.493 E.23191
G1 X.257 Y3.493 E.02414
M73 P10 R2
G1 X-3.493 Y-.257 E.19777
G1 X-3.493 Y.39 E.02414
G1 X-.39 Y3.493 E.16364
G1 X-1.038 Y3.493 E.02414
G1 X-3.493 Y1.038 E.1295
G1 X-3.493 Y1.685 E.02414
G1 X-1.685 Y3.493 E.09536
G1 X-2.332 Y3.493 E.02414
G1 X-3.493 Y2.332 E.06123
M73 P11 R2
G1 X-3.493 Y2.979 E.02414
G1 X-2.774 Y3.699 E.03794
EXCLUDE_OBJECT_END NAME=3dp-1_cm-2026-07-09_23-50-39.step_id_0_copy_0
; CHANGE_LAYER
; Z_HEIGHT: 0.4
; LAYER_HEIGHT: 0.2
;BEFORE_LAYER_CHANGE
;0.4
G92 E0

G1 E-.56 F300
; WIPE_START
G1 F16800
G1 X-3.493 Y2.979 E-.11598
G1 X-3.493 Y2.332 E-.07378
G1 X-3.256 Y2.569 E-.03824
; WIPE_END
G1 E-.012 F300
;AFTER_LAYER_CHANGE
;0.4
M106 S255
M106 P2 S178
EXCLUDE_OBJECT_START NAME=3dp-1_cm-2026-07-09_23-50-39.step_id_0_copy_0
SET_VELOCITY_LIMIT SQUARE_CORNER_VELOCITY=12
G1 Z.6 F21000
G1 X4.086 Y4.086 Z.6
G1 Z.4
G1 E.8 F300
SET_VELOCITY_LIMIT SQUARE_CORNER_VELOCITY=7
; FEATURE: Inner wall
; LINE_WIDTH: 0.399999
M73 P12 R2
G1 F2293
G1 X-4.086 Y4.086 E.23778
G1 X-4.086 Y-4.086 E.23778
G1 X4.086 Y-4.086 E.23778
M73 P13 R2
G1 X4.086 Y0 E.11889
G1 X4.086 Y4.026 E.11714
SET_VELOCITY_LIMIT SQUARE_CORNER_VELOCITY=9
SET_VELOCITY_LIMIT SQUARE_CORNER_VELOCITY=12
G1 X4.443 Y4.443 F21000
SET_VELOCITY_LIMIT SQUARE_CORNER_VELOCITY=7
G1 F2293
G1 X-4.443 Y4.443 E.25856
G1 X-4.443 Y-4.443 E.25856
M73 P14 R2
G1 X4.443 Y-4.443 E.25856
G1 X4.443 Y0 E.12928
G1 X4.443 Y4.383 E.12753
SET_VELOCITY_LIMIT SQUARE_CORNER_VELOCITY=9
SET_VELOCITY_LIMIT SQUARE_CORNER_VELOCITY=12
G1 X4.8 Y4.8 F21000
SET_VELOCITY_LIMIT SQUARE_CORNER_VELOCITY=7
; FEATURE: Outer wall
G1 F2293
G1 X-4.8 Y4.8 E.27934
M73 P15 R2
G1 X-4.8 Y-4.8 E.27934
M73 P15 R1
G1 X4.8 Y-4.8 E.27934
G1 X4.8 Y0 E.13967
M73 P16 R1
G1 X4.8 Y4.74 E.13792
SET_VELOCITY_LIMIT SQUARE_CORNER_VELOCITY=9
G1 E-.56 F300
; WIPE_START
G1 F16800
G1 X2.8 Y4.752 E-.228
; WIPE_END
G1 E-.012 F300
SET_VELOCITY_LIMIT SQUARE_CORNER_VELOCITY=12
G1 Z.8 F21000
G1 X3.241 Y3.979 Z.8
G1 Z.4
G1 E.8 F300
; FEATURE: Internal solid infill
; LINE_WIDTH: 0.407565
M73 P17 R1
G1 F2293
G1 X3.818 Y3.402 E.02426
G1 X3.818 Y2.886 E.01532
G1 X2.886 Y3.818 E.03917
G1 X2.37 Y3.818 E.01532
G1 X3.818 Y2.37 E.06084
G1 X3.818 Y1.854 E.01532
G1 X1.854 Y3.818 E.08251
G1 X1.339 Y3.818 E.01532
G1 X3.818 Y1.339 E.10418
G1 X3.818 Y.823 E.01532
G1 X.823 Y3.818 E.12585
M73 P18 R1
G1 X.307 Y3.818 E.01532
G1 X3.818 Y.307 E.14752
G1 X3.818 Y-.208 E.01532
G1 X-.208 Y3.818 E.16919
G1 X-.724 Y3.818 E.01532
G1 X3.818 Y-.724 E.19086
G1 X3.818 Y-1.24 E.01532
G1 X-1.24 Y3.818 E.21253
M73 P19 R1
G1 X-1.755 Y3.818 E.01532
G1 X3.818 Y-1.755 E.2342
G1 X3.818 Y-2.271 E.01532
G1 X-2.271 Y3.818 E.25587
G1 X-2.787 Y3.818 E.01532
G1 X3.818 Y-2.787 E.27754
M73 P20 R1
G1 X3.818 Y-3.302 E.01532
G1 X-3.302 Y3.818 E.29921
G1 X-3.818 Y3.818 E.01532
G1 X3.818 Y-3.818 E.32088
G1 X3.302 Y-3.818 E.01532
M73 P21 R1
G1 X-3.818 Y3.302 E.29921
G1 X-3.818 Y2.787 E.01532
G1 X2.787 Y-3.818 E.27754
G1 X2.271 Y-3.818 E.01532
G1 X-3.818 Y2.271 E.25587
G1 X-3.818 Y1.755 E.01532
M73 P22 R1
G1 X1.755 Y-3.818 E.2342
G1 X1.24 Y-3.818 E.01532
G1 X-3.818 Y1.24 E.21253
G1 X-3.818 Y.724 E.01532
G1 X.724 Y-3.818 E.19086
G1 X.208 Y-3.818 E.01532
