; HEADER_BLOCK_START
; BambuStudio 01.09.05.51
; estimated printing time (normal mode) = 26m 9s
; total layer number: 94
; filament_density: 1.24
; filament_diameter: 1.75
; max_z_height: 24.00
; HEADER_BLOCK_END

; CONFIG_BLOCK_START
; accel_to_decel_enable = 1
; accel_to_decel_factor = 50%
; activate_air_filtration = 0
; additional_cooling_fan_speed = 70
; auxiliary_fan = 0
; bed_custom_model = 
; bed_custom_texture = 
; bed_exclude_area = 0x0
; before_layer_change_gcode = ;BEFORE_LAYER_CHANGE\n;[layer_z]\nG92 E0\n
; best_object_pos = 0.5,0.5
; bottom_shell_layers = 3
; bottom_shell_thickness = 0
; bottom_surface_pattern = monotonic
; bridge_angle = 0
; bridge_flow = 0.95
; bridge_no_support = 0
; bridge_speed = 25
; brim_object_gap = 0.1
; brim_type = auto_brim
; brim_width = 5
; chamber_temperatures = 0
; change_filament_gcode = 
; close_fan_the_first_x_layers = 1
; complete_print_exhaust_fan_speed = 80
; cool_plate_temp = 60
; cool_plate_temp_initial_layer = 60
; curr_bed_type = High Temp Plate
; default_acceleration = 3000
; default_filament_colour = ""
; default_filament_profile = "Voron Generic ABS"
; default_jerk = 9
; default_print_profile = 0.20mm Standard @Voron
; deretraction_speed = 6.5
; detect_narrow_internal_solid_infill = 1
; detect_overhang_wall = 1
; detect_thin_wall = 0
; different_settings_to_system = skirt_loops;;
; draft_shield = disabled
; during_print_exhaust_fan_speed = 60
; elefant_foot_compensation = 0
; enable_arc_fitting = 0
; enable_long_retraction_when_cut = 0
; enable_overhang_bridge_fan = 1
; enable_overhang_speed = 1
; enable_pressure_advance = 0
; enable_prime_tower = 0
; enable_support = 0
; enforce_support_layers = 0
; eng_plate_temp = 60
; eng_plate_temp_initial_layer = 60
; ensure_vertical_shell_thickness = 1
; exclude_object = 1
; extruder_clearance_height_to_lid = 140
; extruder_clearance_height_to_rod = 36
; extruder_clearance_max_radius = 68
; extruder_clearance_radius = 65
; extruder_colour = #FCE94F
; extruder_offset = 0x0
; extruder_type = DirectDrive
; fan_cooling_layer_time = 100
; fan_max_speed = 100
; fan_min_speed = 100
; filament_colour = #FFFFFF
; filament_cost = 20
; filament_density = 1.24
; filament_diameter = 1.75
; filament_end_gcode = "; filament end gcode \n"
; filament_flow_ratio = 1.22
; filament_ids = GFL99
; filament_is_support = 0
; filament_max_volumetric_speed = 3
; filament_minimal_purge_on_wipe_tower = 15
; filament_notes = 
; filament_settings_id = "Generic PLA @HenryLi-0 spark 0.4 nozzle"
; filament_soluble = 0
; filament_start_gcode = "; filament start gcode\n"
; filament_type = PLA
; filament_vendor = Generic
; filename_format = {input_filename_base}_{filament_type[0]}_{print_time}.gcode
; filter_out_gap_fill = 0
; first_layer_print_sequence = 0
; flush_into_infill = 0
; flush_into_objects = 0
; flush_into_support = 1
; flush_multiplier = 1
; flush_volumes_matrix = 0
; flush_volumes_vector = 140,140
; full_fan_speed_layer = 0
; fuzzy_skin = none
; fuzzy_skin_point_distance = 0.8
; fuzzy_skin_thickness = 0.3
; gap_infill_speed = 60
; gcode_add_line_number = 0
; gcode_flavor = klipper
; has_scarf_joint_seam = 0
; head_wrap_detect_zone = 
; host_type = octoprint
; hot_plate_temp = 60
; hot_plate_temp_initial_layer = 60
; independent_support_layer_height = 1
; infill_combination = 0
; infill_direction = 45
; infill_jerk = 12
; infill_wall_overlap = 25%
; initial_layer_acceleration = 350
; initial_layer_flow_ratio = 1
; initial_layer_infill_speed = 80
; initial_layer_jerk = 9
; initial_layer_line_width = 0.6
; initial_layer_print_height = 0.2
; initial_layer_speed = 80
; inner_wall_acceleration = 3000
; inner_wall_jerk = 7
; inner_wall_line_width = 0.6
; inner_wall_speed = 80
; interface_shells = 0
; internal_bridge_support_thickness = 0
; internal_solid_infill_line_width = 0.6
; internal_solid_infill_pattern = zig-zag
; internal_solid_infill_speed = 80
; ironing_direction = 45
; ironing_flow = 10%
; ironing_pattern = zig-zag
; ironing_spacing = 0.15
; ironing_speed = 30
; ironing_type = top
; is_infill_first = 0
; layer_change_gcode = ;AFTER_LAYER_CHANGE\n;[layer_z]
; layer_height = 0.2
; line_width = 0.6
; long_retractions_when_cut = 0
; machine_end_gcode = G0 Z75\nG0 X-45 Y-70\nTURN_OFF_HEATERS\nPRINT_END
; machine_load_filament_time = 0
; machine_max_acceleration_e = 100,5000
; machine_max_acceleration_extruding = 100,20000
; machine_max_acceleration_retracting = 100,5000
; machine_max_acceleration_travel = 9000,9000
; machine_max_acceleration_x = 100,20000
; machine_max_acceleration_y = 100,20000
; machine_max_acceleration_z = 100,200
; machine_max_jerk_e = 0.25,2.5
; machine_max_jerk_x = 4.5,12
; machine_max_jerk_y = 4.5,12
; machine_max_jerk_z = 0.175,0.4
; machine_max_speed_e = 15,25
; machine_max_speed_x = 100,200
; machine_max_speed_y = 100,200
; machine_max_speed_z = 5,12
; machine_min_extruding_rate = 0,0
; machine_min_travel_rate = 0,0
; machine_pause_gcode = PAUSE
; machine_start_gcode = M190 S[bed_temperature_initial_layer_single]\nM109 S[nozzle_temperature_initial_layer]
; machine_unload_filament_time = 0
; max_bridge_length = 10
; max_layer_height = 0.32
; max_travel_detour_distance = 0
; min_bead_width = 85%
; min_feature_size = 25%
; min_layer_height = 0.08
; minimum_sparse_infill_area = 15
; mmu_segmented_region_interlocking_depth = 0
; mmu_segmented_region_max_width = 0
; nozzle_diameter = 0.4
; nozzle_height = 4
; nozzle_temperature = 230
; nozzle_temperature_initial_layer = 230
; nozzle_temperature_range_high = 240
; nozzle_temperature_range_low = 200
; nozzle_type = brass
; nozzle_volume = 0
; only_one_wall_first_layer = 0
; ooze_prevention = 0
; other_layers_print_sequence = 0
; other_layers_print_sequence_nums = 0
; outer_wall_acceleration = 1500
; outer_wall_jerk = 7
; outer_wall_line_width = 0.6
; outer_wall_speed = 80
; overhang_1_4_speed = 80
; overhang_2_4_speed = 50
; overhang_3_4_speed = 30
; overhang_4_4_speed = 10
; overhang_fan_speed = 100
; overhang_fan_threshold = 50%
; overhang_totally_speed = 24
; post_process = 
; precise_z_height = 0
; pressure_advance = 0.02
; prime_tower_brim_width = 3
; prime_tower_width = 35
; prime_volume = 45
; print_compatible_printers = "HenryLi-0 spark 0.4 nozzle"
; print_flow_ratio = 1
; print_sequence = by layer
; print_settings_id = 0.20mm Standard @HenryLi-0 spark 0.4 nozzle
; printable_area = -75x-75,75x-75,75x75,-75x75
; printable_height = 120
; printer_model = HenryLi-0 spark
; printer_notes = 
; printer_settings_id = HenryLi-0 spark 0.4 nozzle
; printer_structure = corexy
; printer_technology = FFF
; printer_variant = 0.4
; printhost_authorization_type = key
; printhost_ssl_ignore_revoke = 0
; printing_by_object_gcode = 
; process_notes = 
; raft_contact_distance = 0.1
; raft_expansion = 1.5
; raft_first_layer_density = 90%
; raft_first_layer_expansion = 2
; raft_layers = 0
; reduce_crossing_wall = 0
; reduce_fan_stop_start_freq = 1
; reduce_infill_retraction = 1
; required_nozzle_HRC = 3
; resolution = 0.012
; retract_before_wipe = 0%
; retract_length_toolchange = 2
; retract_lift_above = 0
; retract_lift_below = 274
; retract_restart_extra = 0
; retract_restart_extra_toolchange = 0
; retract_when_changing_layer = 1
; retraction_distances_when_cut = 18
; retraction_length = 0.8
; retraction_minimum_travel = 1
; retraction_speed = 2
; scan_first_layer = 0
; scarf_angle_threshold = 155
; seam_gap = 15%
; seam_position = aligned
; seam_slope_conditional = 1
; seam_slope_entire_loop = 0
; seam_slope_inner_walls = 1
; seam_slope_min_length = 10
; seam_slope_start_height = 50%
; seam_slope_steps = 10
; seam_slope_type = none
; silent_mode = 0
; single_extruder_multi_material = 1
; skirt_distance = 5
; skirt_height = 1
; skirt_loops = 0
; slice_closing_radius = 0.049
; slicing_mode = regular
; slow_down_for_layer_cooling = 1
; slow_down_layer_time = 8
; slow_down_min_speed = 10
; small_perimeter_speed = 50%
; small_perimeter_threshold = 0
; smooth_coefficient = 80
; smooth_speed_discontinuity_area = 1
; solid_infill_filament = 1
; sparse_infill_acceleration = 100%
; sparse_infill_anchor = 400%
; sparse_infill_anchor_max = 20
; sparse_infill_density = 15%
; sparse_infill_filament = 1
; sparse_infill_line_width = 0.6
; sparse_infill_pattern = grid
; sparse_infill_speed = 80
; spiral_mode = 0
; spiral_mode_max_xy_smoothing = 200%
; spiral_mode_smooth = 0
; standby_temperature_delta = -5
; start_end_points = 30x-3,54x245
; support_air_filtration = 0
; support_angle = 0
; support_base_pattern = default
; support_base_pattern_spacing = 2.5
; support_bottom_interface_spacing = 0.5
; support_bottom_z_distance = 0.2
; support_chamber_temp_control = 0
; support_critical_regions_only = 0
; support_expansion = 0
; support_filament = 0
; support_interface_bottom_layers = 0
; support_interface_filament = 0
; support_interface_loop_pattern = 0
; support_interface_not_for_body = 1
; support_interface_pattern = auto
; support_interface_spacing = 0.5
; support_interface_speed = 80
; support_interface_top_layers = 3
; support_line_width = 0.6
; support_object_first_layer_gap = 0.2
; support_object_xy_distance = 0.35
; support_on_build_plate_only = 0
; support_remove_small_overhang = 1
; support_speed = 150
; support_style = default
; support_threshold_angle = 30
; support_top_z_distance = 0.2
; support_type = normal(auto)
; temperature_vitrification = 60
; template_custom_gcode = 
; textured_plate_temp = 60
; textured_plate_temp_initial_layer = 60
; thick_bridges = 0
; thumbnail_size = 50x50
; time_lapse_gcode = 
; timelapse_type = 0
; top_area_threshold = 100%
; top_one_wall_type = all top
; top_shell_layers = 4
; top_shell_thickness = 0.8
; top_solid_infill_flow_ratio = 1
; top_surface_acceleration = 1500
; top_surface_jerk = 9
; top_surface_line_width = 0.6
; top_surface_pattern = monotonic
; top_surface_speed = 80
; travel_jerk = 12
; travel_speed = 350
; travel_speed_z = 0
; tree_support_branch_angle = 40
; tree_support_branch_diameter = 5
; tree_support_branch_distance = 5
; tree_support_wall_count = 0
; upward_compatible_machine = 
; use_firmware_retraction = 0
; use_relative_e_distances = 1
; wall_distribution_count = 1
; wall_filament = 1
; wall_generator = arachne
; wall_loops = 3
; wall_sequence = inner wall/outer wall
; wall_transition_angle = 10
; wall_transition_filter_deviation = 25%
; wall_transition_length = 100%
; wipe = 1
; wipe_distance = 2
; wipe_speed = 80%
; wipe_tower_no_sparse_layers = 0
; wipe_tower_rotation_angle = 0
; wipe_tower_x = 56
; wipe_tower_y = 60
; xy_contour_compensation = 0
; xy_hole_compensation = 0
; z_hop = 0.4
; z_hop_types = Normal Lift
; CONFIG_BLOCK_END

; THUMBNAIL_BLOCK_START
; THUMBNAIL_BLOCK_END

; EXECUTABLE_BLOCK_START
EXCLUDE_OBJECT_DEFINE NAME=3DBenchy.stl_id_0_copy_0 CENTER=-0.000500679,0.00920868 POLYGON=[[-7.75292,-2.66018],[-7.68759,-4.11912],[-7.62276,-4.84483],[-7.30529,-6.03529],[-6.80779,-7.39045],[-6.21291,-8.68704],[-5.52384,-9.83801],[-5.00021,-10.618],[-4.20572,-11.6525],[-3.08295,-12.8419],[-1.682,-14.0659],[-0.475635,-14.9007],[-0.017216,-14.986],[0.307163,-14.9521],[0.579139,-14.842],[1.65464,-14.0708],[2.68308,-13.2196],[3.63389,-12.2695],[4.51798,-11.2725],[5.43528,-9.98547],[5.93329,-9.19361],[6.64197,-7.77635],[7.26077,-6.18695],[7.61372,-4.86493],[7.71501,-3.89509],[7.74729,-3.23839],[7.75192,-2.54652],[7.73807,-2.02692],[7.61968,-0.280993],[5.57024,14.2969],[5.42051,14.5876],[5.28949,14.712],[5.00189,14.9195],[4.85648,14.9863],[4.7028,14.9903],[-4.75823,15.0045],[-5.19147,14.8253],[-5.51217,14.4369],[-5.5885,14.1699],[-7.56612,0.069633],[-7.65889,-0.955583],[-7.73295,-1.85456],[-7.74682,-2.16409],[-7.75292,-2.66018]]
M73 P0 R26
M106 S0
M106 P2 S0
; FEATURE: Custom
M190 S60
M109 S230
G90
G21
M83 ; use relative distances for extrusion
; filament start gcode
; CHANGE_LAYER
; Z_HEIGHT: 5.4
; LAYER_HEIGHT: 5.4
;BEFORE_LAYER_CHANGE
;5.4
G92 E0

G1 E-.8 F120
;AFTER_LAYER_CHANGE
;5.4
M106 S0
M106 P2 S0
SET_VELOCITY_LIMIT ACCEL_TO_DECEL=50
M204 S100
SET_VELOCITY_LIMIT SQUARE_CORNER_VELOCITY=4
M140 S60 ; set bed temperature
EXCLUDE_OBJECT_START NAME=3DBenchy.stl_id_0_copy_0
G1 Z5.4 F21000
G1 X-.012 Y-10.645
G1 Z5.4
G1 E.8 F420
; FEATURE: Inner wall
; LINE_WIDTH: 0.599999
; LAYER_HEIGHT: 0.2
G1 F1615.57
G1 X.302 Y-10.478 E.02012
G1 X1.61 Y-9.474 E.09316
G1 X2.032 Y-9.084 E.03249
G1 X2.74 Y-8.349 E.05764
G1 X3.539 Y-7.348 E.07242
G1 X3.842 Y-6.902 E.03046
G1 X4.36 Y-5.988 E.05936
G1 X4.697 Y-5.304 E.04307
G1 X4.954 Y-4.717 E.03622
G1 X4.323 Y-4.724 E.03569
G1 X3.777 Y-4.7 E.03085
G1 X3.284 Y-4.539 E.02931
G1 X2.998 Y-4.3 E.02109
G1 X2.446 Y-4.313 E.0312
G1 X-3.017 Y-4.308 E.30868
G1 X-3.297 Y-4.546 E.02079
G1 X-3.51 Y-4.634 E.013
G1 X-4.031 Y-4.74 E.03007
G1 X-4.933 Y-4.724 E.05095
G1 X-4.583 Y-5.584 E.05247
G1 X-3.718 Y-7.111 E.09916
G1 X-2.915 Y-8.155 E.07446
G1 X-2.026 Y-9.121 E.07416
G1 X-1.123 Y-9.909 E.06774
G1 X-.392 Y-10.427 E.05063
G1 X-.064 Y-10.615 E.02138
; WIPE_START
G1 F16800
G1 X.302 Y-10.478 E-.1486
G1 X1.579 Y-9.498 E-.6114
; WIPE_END
G1 E-.04 F120
G1 Z5.8 F21000
G1 X3.869 Y-4.141 Z5.8
G1 Z5.4
G1 E.8 F420
G1 F1615.57
G1 X3.633 Y-4.086 E.01367
G1 X3.332 Y-3.85 E.02161
G1 X3.241 Y-3.675 E.01115
G1 X3.047 Y-3.742 E.01157
G1 X2.446 Y-3.756 E.03401
G1 X-2.449 Y-3.756 E.2766
G1 X-3.018 Y-3.748 E.03219
G1 X-3.257 Y-3.667 E.01423
G1 X-3.332 Y-3.837 E.0105
G1 X-3.581 Y-4.066 E.01916
G1 X-4.021 Y-4.183 E.02572
G1 X-5.575 Y-4.156 E.08781
G1 X-5.761 Y-4.1 E.01098
G1 X-5.7 Y-4.316 E.0127
G1 X-5.086 Y-5.825 E.09208
G1 X-4.182 Y-7.421 E.10361
G1 X-3.342 Y-8.515 E.07797
G1 X-2.415 Y-9.521 E.07729
G1 X-1.468 Y-10.347 E.07105
G1 X-.663 Y-10.917 E.05571
G1 X-.019 Y-11.281 E.0418
G1 X.602 Y-10.949 E.03983
G1 X1.956 Y-9.911 E.0964
G1 X2.427 Y-9.477 E.03618
G1 X3.159 Y-8.717 E.05963
G1 X3.975 Y-7.695 E.07389
G1 X4.318 Y-7.192 E.03441
G1 X4.853 Y-6.249 E.06129
G1 X5.202 Y-5.539 E.0447
G1 X5.484 Y-4.895 E.03974
G1 X5.75 Y-4.11 E.04684
G1 X5.503 Y-4.154 E.01417
G1 X3.993 Y-4.171 E.08535
G1 X3.927 Y-4.155 E.00385
; WIPE_START
G1 F16800
G1 X3.633 Y-4.086 E-.11472
G1 X3.332 Y-3.85 E-.14534
G1 X3.241 Y-3.675 E-.075
G1 X3.047 Y-3.742 E-.07777
G1 X2.446 Y-3.756 E-.22868
G1 X2.134 Y-3.756 E-.11849
; WIPE_END
G1 E-.04 F120
G1 Z5.8 F21000
G1 X.001 Y-11.888 Z5.8
G1 Z5.4
G1 E.8 F420
; FEATURE: Outer wall
G1 F1615.57
G1 X.148 Y-11.838 E.00879
G1 X1.182 Y-11.235 E.06764
G1 X2.692 Y-10.004 E.11005
G1 X3.578 Y-9.085 E.07216
G1 X4.423 Y-8.027 E.0765
G1 X4.743 Y-7.57 E.03154
G1 X5.322 Y-6.557 E.06596
G1 X5.696 Y-5.799 E.04774
G1 X5.992 Y-5.133 E.04118
G1 X6.189 Y-4.552 E.03472
G1 X6.428 Y-3.822 E.04338
G1 X6.584 Y-3.177 E.03751
; LINE_WIDTH: 0.561421
G1 F1735.773
G1 X6.783 Y-2.062 E.05957
; LINE_WIDTH: 0.569872
G1 F1707.935
G1 X6.874 Y-1.378 E.03686
G1 X6.889 Y-.693 E.03667
; LINE_WIDTH: 0.563633
G1 F1728.399
G1 X6.894 Y.294 E.0521
G1 X6.856 Y.789 E.02623
; LINE_WIDTH: 0.553963
G1 F1761.104
G1 X6.669 Y2.639 E.09639
; LINE_WIDTH: 0.581522
G1 F1670.993
G1 X6.674 Y2.723 E.00458
; LINE_WIDTH: 0.609081
G1 F1589.654
G1 X6.679 Y2.806 E.00481
G1 X6.711 Y2.813 E.00186
; LINE_WIDTH: 0.626391
G1 F1542.493
G1 X6.716 Y3.214 E.02377
G1 X6.536 Y4.385 E.07011
; LINE_WIDTH: 0.592033
G1 F1639.008
G1 X6.357 Y5.556 E.06598
; LINE_WIDTH: 0.557674
M73 P0 R25
G1 F1748.408
G1 X6.356 Y5.564 E.00044
; LINE_WIDTH: 0.557325
G1 F1749.594
G1 X5.918 Y8.985 E.17997
; LINE_WIDTH: 0.513309
G1 F1913.31
G1 X5.535 Y12.208 E.15488
; LINE_WIDTH: 0.491981
G1 F2004.182
G1 X5.499 Y12.305 E.00472
G1 X5.483 Y12.679 E.01704
; LINE_WIDTH: 0.493226
G1 F1998.641
G1 X5.356 Y13.874 E.05491
; LINE_WIDTH: 0.510394
G1 F1925.241
G1 X5.329 Y14.047 E.00828
; LINE_WIDTH: 0.538167
G1 F1817.275
G1 X5.196 Y14.423 E.02003
; LINE_WIDTH: 0.540197
G1 F1809.856
G1 X4.87 Y14.676 E.02082
G1 X4.592 Y14.721 E.01422
; LINE_WIDTH: 0.537218
G1 F1820.764
G1 X.91 Y14.723 E.18462
; LINE_WIDTH: 0.52537
G1 F1865.478
G1 X.553 Y14.742 E.01748
; LINE_WIDTH: 0.48694
G1 F2026.936
G1 X.169 Y14.764 E.01732
; LINE_WIDTH: 0.442939
G1 F2249.896
G1 X-.215 Y14.785 E.0156
; LINE_WIDTH: 0.442464
G1 F2252.57
