; HEADER_BLOCK_START
; BambuStudio 01.09.05.51
; estimated printing time (normal mode) = 7m 10s
; total layer number: 35
; filament_density: 1.24
; filament_diameter: 1.75
; max_z_height: 24.00
; HEADER_BLOCK_END

; CONFIG_BLOCK_START
; accel_to_decel_enable = 1
; accel_to_decel_factor = 50%
; activate_air_filtration = 0
; additional_cooling_fan_speed = 70
; auxiliary_fan = 0
; bed_custom_model = 
; bed_custom_texture = 
; bed_exclude_area = 0x0
; before_layer_change_gcode = ;BEFORE_LAYER_CHANGE\n;[layer_z]\nG92 E0\n
; best_object_pos = 0.5,0.5
; bottom_shell_layers = 3
; bottom_shell_thickness = 0
; bottom_surface_pattern = monotonic
; bridge_angle = 0
; bridge_flow = 0.95
; bridge_no_support = 0
; bridge_speed = 25
; brim_object_gap = 0.1
; brim_type = auto_brim
; brim_width = 5
; chamber_temperatures = 0
; change_filament_gcode = 
; close_fan_the_first_x_layers = 1
; complete_print_exhaust_fan_speed = 80
; cool_plate_temp = 60
; cool_plate_temp_initial_layer = 60
; curr_bed_type = High Temp Plate
; default_acceleration = 3000
; default_filament_colour = ""
; default_filament_profile = "Voron Generic ABS"
; default_jerk = 9
; default_print_profile = 0.20mm Standard @Voron
; deretraction_speed = 6.5
; detect_narrow_internal_solid_infill = 1
; detect_overhang_wall = 1
; detect_thin_wall = 0
; different_settings_to_system = skirt_loops;;
; draft_shield = disabled
; during_print_exhaust_fan_speed = 60
; elefant_foot_compensation = 0
; enable_arc_fitting = 0
; enable_long_retraction_when_cut = 0
; enable_overhang_bridge_fan = 1
; enable_overhang_speed = 1
; enable_pressure_advance = 0
; enable_prime_tower = 0
; enable_support = 0
; enforce_support_layers = 0
; eng_plate_temp = 60
; eng_plate_temp_initial_layer = 60
; ensure_vertical_shell_thickness = 1
; exclude_object = 1
; extruder_clearance_height_to_lid = 140
; extruder_clearance_height_to_rod = 36
; extruder_clearance_max_radius = 68
; extruder_clearance_radius = 65
; extruder_colour = #FCE94F
; extruder_offset = 0x0
; extruder_type = DirectDrive
; fan_cooling_layer_time = 100
; fan_max_speed = 100
; fan_min_speed = 100
; filament_colour = #FFFFFF
; filament_cost = 20
; filament_density = 1.24
; filament_diameter = 1.75
; filament_end_gcode = "; filament end gcode \n"
; filament_flow_ratio = 1.22
; filament_ids = GFL99
; filament_is_support = 0
; filament_max_volumetric_speed = 3
; filament_minimal_purge_on_wipe_tower = 15
; filament_notes = 
; filament_settings_id = "Generic PLA @HenryLi-0 spark 0.4 nozzle"
; filament_soluble = 0
; filament_start_gcode = "; filament start gcode\n"
; filament_type = PLA
; filament_vendor = Generic
; filename_format = {input_filename_base}_{filament_type[0]}_{print_time}.gcode
; filter_out_gap_fill = 0
; first_layer_print_sequence = 0
; flush_into_infill = 0
; flush_into_objects = 0
; flush_into_support = 1
; flush_multiplier = 1
; flush_volumes_matrix = 0
; flush_volumes_vector = 140,140
; full_fan_speed_layer = 0
; fuzzy_skin = none
; fuzzy_skin_point_distance = 0.8
; fuzzy_skin_thickness = 0.3
; gap_infill_speed = 60
; gcode_add_line_number = 0
; gcode_flavor = klipper
; has_scarf_joint_seam = 0
; head_wrap_detect_zone = 
; host_type = octoprint
; hot_plate_temp = 60
; hot_plate_temp_initial_layer = 60
; independent_support_layer_height = 1
; infill_combination = 0
; infill_direction = 45
; infill_jerk = 12
; infill_wall_overlap = 25%
; initial_layer_acceleration = 350
; initial_layer_flow_ratio = 1
; initial_layer_infill_speed = 80
; initial_layer_jerk = 9
; initial_layer_line_width = 0.6
; initial_layer_print_height = 0.2
; initial_layer_speed = 80
; inner_wall_acceleration = 3000
; inner_wall_jerk = 7
; inner_wall_line_width = 0.6
; inner_wall_speed = 80
; interface_shells = 0
; internal_bridge_support_thickness = 0
; internal_solid_infill_line_width = 0.6
; internal_solid_infill_pattern = zig-zag
; internal_solid_infill_speed = 80
; ironing_direction = 45
; ironing_flow = 10%
; ironing_pattern = zig-zag
; ironing_spacing = 0.15
; ironing_speed = 30
; ironing_type = top
; is_infill_first = 0
; layer_change_gcode = ;AFTER_LAYER_CHANGE\n;[layer_z]
; layer_height = 0.2
; line_width = 0.6
; long_retractions_when_cut = 0
; machine_end_gcode = G0 Z75\nG0 X-45 Y-70\nTURN_OFF_HEATERS\nPRINT_END
; machine_load_filament_time = 0
; machine_max_acceleration_e = 100,5000
; machine_max_acceleration_extruding = 100,20000
; machine_max_acceleration_retracting = 100,5000
; machine_max_acceleration_travel = 9000,9000
; machine_max_acceleration_x = 100,20000
; machine_max_acceleration_y = 100,20000
; machine_max_acceleration_z = 100,200
; machine_max_jerk_e = 0.25,2.5
; machine_max_jerk_x = 4.5,12
; machine_max_jerk_y = 4.5,12
; machine_max_jerk_z = 0.175,0.4
; machine_max_speed_e = 15,25
; machine_max_speed_x = 100,200
; machine_max_speed_y = 100,200
; machine_max_speed_z = 5,12
; machine_min_extruding_rate = 0,0
; machine_min_travel_rate = 0,0
; machine_pause_gcode = PAUSE
; machine_start_gcode = M190 S[bed_temperature_initial_layer_single]\nM109 S[nozzle_temperature_initial_layer]
; machine_unload_filament_time = 0
; max_bridge_length = 10
; max_layer_height = 0.32
; max_travel_detour_distance = 0
; min_bead_width = 85%
; min_feature_size = 25%
; min_layer_height = 0.08
; minimum_sparse_infill_area = 15
; mmu_segmented_region_interlocking_depth = 0
; mmu_segmented_region_max_width = 0
; nozzle_diameter = 0.4
; nozzle_height = 4
; nozzle_temperature = 230
; nozzle_temperature_initial_layer = 230
; nozzle_temperature_range_high = 240
; nozzle_temperature_range_low = 200
; nozzle_type = brass
; nozzle_volume = 0
; only_one_wall_first_layer = 0
; ooze_prevention = 0
; other_layers_print_sequence = 0
; other_layers_print_sequence_nums = 0
; outer_wall_acceleration = 1500
; outer_wall_jerk = 7
; outer_wall_line_width = 0.6
; outer_wall_speed = 80
; overhang_1_4_speed = 80
; overhang_2_4_speed = 50
; overhang_3_4_speed = 30
; overhang_4_4_speed = 10
; overhang_fan_speed = 100
; overhang_fan_threshold = 50%
; overhang_totally_speed = 24
; post_process = 
; precise_z_height = 0
; pressure_advance = 0.02
; prime_tower_brim_width = 3
; prime_tower_width = 35
; prime_volume = 45
; print_compatible_printers = "HenryLi-0 spark 0.4 nozzle"
; print_flow_ratio = 1
; print_sequence = by layer
; print_settings_id = 0.20mm Standard @HenryLi-0 spark 0.4 nozzle
; printable_area = -75x-75,75x-75,75x75,-75x75
; printable_height = 120
; printer_model = HenryLi-0 spark
; printer_notes = 
; printer_settings_id = HenryLi-0 spark 0.4 nozzle
; printer_structure = corexy
; printer_technology = FFF
; printer_variant = 0.4
; printhost_authorization_type = key
; printhost_ssl_ignore_revoke = 0
; printing_by_object_gcode = 
; process_notes = 
; raft_contact_distance = 0.1
; raft_expansion = 1.5
; raft_first_layer_density = 90%
; raft_first_layer_expansion = 2
; raft_layers = 0
; reduce_crossing_wall = 0
; reduce_fan_stop_start_freq = 1
; reduce_infill_retraction = 1
; required_nozzle_HRC = 3
; resolution = 0.012
; retract_before_wipe = 0%
; retract_length_toolchange = 2
; retract_lift_above = 0
; retract_lift_below = 274
; retract_restart_extra = 0
; retract_restart_extra_toolchange = 0
; retract_when_changing_layer = 1
; retraction_distances_when_cut = 18
; retraction_length = 0.8
; retraction_minimum_travel = 1
; retraction_speed = 2
; scan_first_layer = 0
; scarf_angle_threshold = 155
; seam_gap = 15%
; seam_position = aligned
; seam_slope_conditional = 1
; seam_slope_entire_loop = 0
; seam_slope_inner_walls = 1
; seam_slope_min_length = 10
; seam_slope_start_height = 50%
; seam_slope_steps = 10
; seam_slope_type = none
; silent_mode = 0
; single_extruder_multi_material = 1
; skirt_distance = 5
; skirt_height = 1
; skirt_loops = 0
; slice_closing_radius = 0.049
; slicing_mode = regular
; slow_down_for_layer_cooling = 1
; slow_down_layer_time = 8
; slow_down_min_speed = 10
; small_perimeter_speed = 50%
; small_perimeter_threshold = 0
; smooth_coefficient = 80
; smooth_speed_discontinuity_area = 1
; solid_infill_filament = 1
; sparse_infill_acceleration = 100%
; sparse_infill_anchor = 400%
; sparse_infill_anchor_max = 20
; sparse_infill_density = 15%
; sparse_infill_filament = 1
; sparse_infill_line_width = 0.6
; sparse_infill_pattern = grid
; sparse_infill_speed = 80
; spiral_mode = 0
; spiral_mode_max_xy_smoothing = 200%
; spiral_mode_smooth = 0
; standby_temperature_delta = -5
; start_end_points = 30x-3,54x245
; support_air_filtration = 0
; support_angle = 0
; support_base_pattern = default
; support_base_pattern_spacing = 2.5
; support_bottom_interface_spacing = 0.5
; support_bottom_z_distance = 0.2
; support_chamber_temp_control = 0
; support_critical_regions_only = 0
; support_expansion = 0
; support_filament = 0
; support_interface_bottom_layers = 0
; support_interface_filament = 0
; support_interface_loop_pattern = 0
; support_interface_not_for_body = 1
; support_interface_pattern = auto
; support_interface_spacing = 0.5
; support_interface_speed = 80
; support_interface_top_layers = 3
; support_line_width = 0.6
; support_object_first_layer_gap = 0.2
; support_object_xy_distance = 0.35
; support_on_build_plate_only = 0
; support_remove_small_overhang = 1
; support_speed = 150
; support_style = default
; support_threshold_angle = 30
; support_top_z_distance = 0.2
; support_type = normal(auto)
; temperature_vitrification = 60
; template_custom_gcode = 
; textured_plate_temp = 60
; textured_plate_temp_initial_layer = 60
; thick_bridges = 0
; thumbnail_size = 50x50
; time_lapse_gcode = 
; timelapse_type = 0
; top_area_threshold = 100%
; top_one_wall_type = all top
; top_shell_layers = 4
; top_shell_thickness = 0.8
; top_solid_infill_flow_ratio = 1
; top_surface_acceleration = 1500
; top_surface_jerk = 9
; top_surface_line_width = 0.6
; top_surface_pattern = monotonic
; top_surface_speed = 80
; travel_jerk = 12
; travel_speed = 350
; travel_speed_z = 0
; tree_support_branch_angle = 40
; tree_support_branch_diameter = 5
; tree_support_branch_distance = 5
; tree_support_wall_count = 0
; upward_compatible_machine = 
; use_firmware_retraction = 0
; use_relative_e_distances = 1
; wall_distribution_count = 1
; wall_filament = 1
; wall_generator = arachne
; wall_loops = 3
; wall_sequence = inner wall/outer wall
; wall_transition_angle = 10
; wall_transition_filter_deviation = 25%
; wall_transition_length = 100%
; wipe = 1
; wipe_distance = 2
; wipe_speed = 80%
; wipe_tower_no_sparse_layers = 0
; wipe_tower_rotation_angle = 0
; wipe_tower_x = 56
; wipe_tower_y = 60
; xy_contour_compensation = 0
; xy_hole_compensation = 0
; z_hop = 0.4
; z_hop_types = Normal Lift
; CONFIG_BLOCK_END

; THUMBNAIL_BLOCK_START
; THUMBNAIL_BLOCK_END

; EXECUTABLE_BLOCK_START
EXCLUDE_OBJECT_DEFINE NAME=3DBenchy.stl_id_0_copy_0 CENTER=-0.000500679,0.00920868 POLYGON=[[-7.75292,-2.66018],[-7.68759,-4.11912],[-7.62276,-4.84483],[-7.30529,-6.03529],[-6.80779,-7.39045],[-6.21291,-8.68704],[-5.52384,-9.83801],[-5.00021,-10.618],[-4.20572,-11.6525],[-3.08295,-12.8419],[-1.682,-14.0659],[-0.475635,-14.9007],[-0.017216,-14.986],[0.307163,-14.9521],[0.579139,-14.842],[1.65464,-14.0708],[2.68308,-13.2196],[3.63389,-12.2695],[4.51798,-11.2725],[5.43528,-9.98547],[5.93329,-9.19361],[6.64197,-7.77635],[7.26077,-6.18695],[7.61372,-4.86493],[7.71501,-3.89509],[7.74729,-3.23839],[7.75192,-2.54652],[7.73807,-2.02692],[7.61968,-0.280993],[5.57024,14.2969],[5.42051,14.5876],[5.28949,14.712],[5.00189,14.9195],[4.85648,14.9863],[4.7028,14.9903],[-4.75823,15.0045],[-5.19147,14.8253],[-5.51217,14.4369],[-5.5885,14.1699],[-7.56612,0.069633],[-7.65889,-0.955583],[-7.73295,-1.85456],[-7.74682,-2.16409],[-7.75292,-2.66018]]
M73 P0 R7
M106 S0
M106 P2 S0
; FEATURE: Custom
M190 S60
M109 S230
G90
G21
M83 ; use relative distances for extrusion
; filament start gcode
; CHANGE_LAYER
; Z_HEIGHT: 17.2
; LAYER_HEIGHT: 17.2
;BEFORE_LAYER_CHANGE
;17.2
G92 E0

G1 E-.8 F120
;AFTER_LAYER_CHANGE
;17.2
M106 S0
M106 P2 S0
SET_VELOCITY_LIMIT ACCEL_TO_DECEL=50
M204 S100
SET_VELOCITY_LIMIT SQUARE_CORNER_VELOCITY=4
M140 S60 ; set bed temperature
EXCLUDE_OBJECT_START NAME=3DBenchy.stl_id_0_copy_0
G1 Z17.2 F21000
G1 X-3.538 Y3.96
M73 P1 R7
G1 Z17.2
G1 E.8 F420
; FEATURE: Outer wall
; LINE_WIDTH: 0.594562
; LAYER_HEIGHT: 0.2
G1 F600
G1 X-3.574 Y3.644 E.01779
; LINE_WIDTH: 0.558026
G1 X-3.61 Y3.328 E.01661
; LINE_WIDTH: 0.522839
G1 X-4.078 Y-5.059 E.40895
; LINE_WIDTH: 0.566254
G1 X-4.076 Y-5.411 E.01869
; LINE_WIDTH: 0.609669
G1 X-4.074 Y-5.763 E.02024
G1 X-3.779 Y-5.768 E.01693
G1 X-3.108 Y-5.857 E.03894
; LINE_WIDTH: 0.598315
G1 X-3.077 Y-5.932 E.00457
G1 X3.079 Y-5.932 E.34685
G1 X3.114 Y-5.857 E.00465
G1 X3.241 Y-5.838 E.00727
; LINE_WIDTH: 0.560552
G1 X3.369 Y-5.818 E.00678
; LINE_WIDTH: 0.56526
G1 X3.717 Y-5.792 E.01851
; LINE_WIDTH: 0.60773
G1 X4.066 Y-5.765 E.02002
G1 X4.068 Y-5.412 E.02021
; LINE_WIDTH: 0.563523
G1 X4.071 Y-5.059 E.01863
; LINE_WIDTH: 0.519426
G1 X3.605 Y3.328 E.40604
; LINE_WIDTH: 0.523037
G1 X3.599 Y3.411 E.00404
; LINE_WIDTH: 0.559045
G1 X3.565 Y3.688 E.01464
; LINE_WIDTH: 0.595052
G1 X3.532 Y3.966 E.01566
G1 X3.212 Y3.985 E.01797
; LINE_WIDTH: 0.557263
G1 X2.891 Y4.003 E.01674
; LINE_WIDTH: 0.519473
G1 X-2.894 Y3.999 E.27966
; LINE_WIDTH: 0.516929
G1 X-2.894 Y3.999 E.00002
; LINE_WIDTH: 0.555746
G1 X-3.216 Y3.98 E.01679
; LINE_WIDTH: 0.594562
G1 X-3.478 Y3.964 E.0147
; WIPE_START
G1 F16800
G1 X-3.574 Y3.644 E-.12677
G1 X-3.61 Y3.328 E-.12081
G1 X-3.685 Y1.982 E-.51242
; WIPE_END
M73 P2 R7
G1 E-.04 F120
G1 Z17.6 F21000
G1 X3.562 Y-5.293 Z17.6
G1 Z17.2
G1 E.8 F420
; LINE_WIDTH: 0.60773
G1 F600
G1 X3.579 Y-5.189 E.00601
; LINE_WIDTH: 0.563523
G1 X3.595 Y-5.086 E.00554
; LINE_WIDTH: 0.519426
G1 X3.129 Y3.302 E.40604
; LINE_WIDTH: 0.557239
M73 P2 R6
G1 X3.105 Y3.395 E.00505
; LINE_WIDTH: 0.595052
G1 X3.081 Y3.489 E.00542
G1 X2.986 Y3.508 E.00541
; LINE_WIDTH: 0.557263
G1 X2.891 Y3.527 E.00504
; LINE_WIDTH: 0.519473
G1 X-2.893 Y3.525 E.27966
; LINE_WIDTH: 0.555746
G1 X-2.989 Y3.506 E.0051
; LINE_WIDTH: 0.594562
G1 X-3.085 Y3.486 E.00548
G1 X-3.109 Y3.394 E.00533
; LINE_WIDTH: 0.558026
G1 X-3.132 Y3.302 E.00498
; LINE_WIDTH: 0.522839
G1 X-3.599 Y-5.085 E.40895
; LINE_WIDTH: 0.566254
G1 X-3.583 Y-5.189 E.00554
; LINE_WIDTH: 0.609669
G1 X-3.567 Y-5.292 E.006
G1 X-2.918 Y-5.376 E.03762
; LINE_WIDTH: 0.59832
G1 X2.924 Y-5.376 E.32915
; LINE_WIDTH: 0.60773
M73 P3 R6
G1 X3.503 Y-5.301 E.03346
EXCLUDE_OBJECT_END NAME=3DBenchy.stl_id_0_copy_0
; CHANGE_LAYER
; Z_HEIGHT: 17.4
; LAYER_HEIGHT: 0.199999
;BEFORE_LAYER_CHANGE
;17.4
G92 E0

; WIPE_START
G1 F16800
G1 X3.579 Y-5.189 E-.05124
G1 X3.595 Y-5.086 E-.03989
G1 X3.497 Y-3.328 E-.66887
; WIPE_END
G1 E-.04 F120
;AFTER_LAYER_CHANGE
;17.4
M106 S255
M106 P2 S178
EXCLUDE_OBJECT_START NAME=3DBenchy.stl_id_0_copy_0
G1 Z17.6 F21000
G1 X-3.544 Y3.966 Z17.6
G1 Z17.4
G1 E.8 F420
; LINE_WIDTH: 0.595072
G1 F600
G1 X-3.58 Y3.65 E.01782
; LINE_WIDTH: 0.558463
G1 X-3.616 Y3.334 E.01664
; LINE_WIDTH: 0.52356
G1 X-4.085 Y-5.074 E.4106
; LINE_WIDTH: 0.566859
G1 X-4.083 Y-5.427 E.01871
; LINE_WIDTH: 0.610158
G1 X-4.081 Y-5.779 E.02026
G1 X-3.786 Y-5.783 E.01697
G1 X-3.389 Y-5.836 E.02305
G1 X-3.108 Y-5.873 E.01634
; LINE_WIDTH: 0.59832
G1 X-3.076 Y-5.948 E.00459
G1 X3.079 Y-5.948 E.34679
G1 X3.091 Y-5.921 E.00162
G1 X3.113 Y-5.873 E.00303
G1 X3.244 Y-5.853 E.00743
; LINE_WIDTH: 0.560538
G1 X3.375 Y-5.834 E.00693
; LINE_WIDTH: 0.565266
G1 X3.723 Y-5.808 E.01852
; LINE_WIDTH: 0.607773
G1 X4.072 Y-5.781 E.02003
G1 X4.074 Y-5.428 E.02022
; LINE_WIDTH: 0.563538
G1 X4.077 Y-5.075 E.01864
; LINE_WIDTH: 0.519671
G1 X3.611 Y3.333 E.40727
; LINE_WIDTH: 0.523283
M73 P4 R6
G1 X3.604 Y3.416 E.00404
; LINE_WIDTH: 0.56038
G1 X3.57 Y3.697 E.01486
; LINE_WIDTH: 0.597476
G1 X3.536 Y3.978 E.01593
G1 X3.216 Y3.996 E.01802
; LINE_WIDTH: 0.560332
G1 X2.896 Y4.014 E.01682
; LINE_WIDTH: 0.523187
G1 X-2.899 Y4.006 E.28233
; LINE_WIDTH: 0.517658
G1 X-2.9 Y4.006 E.00004
; LINE_WIDTH: 0.556365
G1 X-3.222 Y3.986 E.0168
; LINE_WIDTH: 0.595072
G1 X-3.484 Y3.97 E.01471
; WIPE_START
G1 F16800
G1 X-3.58 Y3.65 E-.12688
